!!!!SEGMENT: pl-stab--27c--001-003_nowakiewicz-kazimierz--missa-in-b-credo.krn
!!!cenid: 18xx:3452
!!!COM: Nowakiewicz, Kazimierz
!!!COM-rismID: pe30020309
!!!CDT: <1800->1824
!!!CNT: Polish
!!!OPR: Missa in B
!!!OTL: Credo
!!!OMV: 003
!!!PDT:
!!!AGN:
!!!YEC: Copyright 2022 Narodowy Instytut Fryderyka Chopina (https://polishscores.org)
!!!YEM: License CC-BY-4.0 (https://creativecommons.org/licenses/by/4.0)
!!!SMS-siglum: PL-STAb
!!!SMS-shelfmark: 27c
!!!SMS-shelfwork: 001-003 M
!!!SMS-variant:
!!!SMS-altvar:
!!!NIFC-rismSourceID: 301050705
!!!NIFC-rismChildID: 301050705
!!!NIFC-islandoraID: pl-stab:3750
!!!URL-pdf-islandora: https://repozytorium.nifc.pl/islandora/object/pl-stab%3A3750/datastream/PDF/view
!!!URL-scan: https://polish.musicsources.pl/pl/lokalizacje/galeria/rekopisy/4473 @EN{Scan on Polish Music Sources Website} @PL{Skany w portalu Dziedzictwo Muzyki Polskiej w otwartym dostępie}
!!!IIIF:
!!!ONB-nifc: UWAGA: części Mszy: 1. Kyrie, 2. Gloria, 3. Credo, 4. Et incarnatus, 5. Et resurrexit, 6. Sanctus, 7. Pleni sunt, 8. Benedictus, 9. Agnus Dei, 10. Dona nobis
!!!OMD:
!!!OMD-mod: Allegro
!!!AIN: 1 bass 2 clars 2 cor 1 organ 2 violn
!!!key: B-
**kern	**kern	**dynam	**kern	**dynam	**kern	**text	**mod-text	**dynam	**mod-dynam	**kern	**text	**mod-text	**dynam	**mod-dynam	**kern	**text	**mod-text	**dynam	**mod-dynam	**kern	**text	**mod-text	**dynam	**mod-dynam	**kern	**dynam	**kern	**dynam	**kern	**dynam	**kern	**dynam
*group5	*group4	*	*group4	*	*group3	*	*	*	*	*group3	*	*	*	*	*group3	*	*	*	*	*group3	*	*	*	*	*group2	*	*group2	*	*group1	*	*group1	*
*part11	*part10	*	*part9	*	*part8	*	*	*	*	*part7	*	*	*	*	*part6	*	*	*	*	*part5	*	*	*	*	*part4	*	*part3	*	*part2	*	*part1	*
*staff11	*staff10	*	*staff9	*	*staff8	*	*	*	*	*staff7	*	*	*	*	*staff6	*	*	*	*	*staff5	*	*	*	*	*staff4	*	*staff3	*	*staff2	*	*staff1	*
*I"Organo	*I"Violino Secundo	*	*I"Violino Primo	*	*I"Baſso	*	*	*	*	*I"Tenore	*	*	*	*	*I"Alto	*	*	*	*	*I"Canto	*	*	*	*	*I"Cornu Secundo in B.	*	*I"Cornu Primo in B.	*	*I"Clarinetto 2do in B.	*	*I"Clarinetto Primo in B.	*
*mI"Organo	*mI"Violino II	*	*mI"Violino I	*	*mI"Basso	*	*	*	*	*mI"Tenore	*	*	*	*	*mI"Alto	*	*	*	*	*mI"Soprano	*	*	*	*	*mI"Corno II in Bb	*	*mI"Corno I in Bb	*	*mI"Clarinetto II in Bb	*	*mI"Clarinetto I in Bb	*
*I'org	*I'vl II	*	*I'vl I	*	*I'B	*	*	*	*	*I'T	*	*	*	*	*I'A	*	*	*	*	*I'S	*	*	*	*	*I'cor II in Bb	*	*I'cor I in Bb	*	*I'cl II in Bb	*	*I'cl I in Bb	*
*Iorgan	*Ivioln	*	*Ivioln	*	*Ibass	*	*	*	*	*	*	*	*	*	*	*	*	*	*	*	*	*	*	*	*Icor	*	*Icor	*	*Iclars	*	*Iclars	*
*ICklav	*ICstr	*	*ICstr	*	*ICvox	*	*	*	*	*ICvox	*	*	*	*	*ICvox	*	*	*	*	*ICvox	*	*	*	*	*ICbras	*	*ICbras	*	*ICww	*	*ICww	*
*IGcont	*IGripn	*	*IGripn	*	*IGcoro	*	*	*	*	*IGcoro	*	*	*	*	*IGcoro	*	*	*	*	*IGcoro	*	*	*	*	*IGripn	*	*IGripn	*	*IGripn	*	*IGripn	*
*clefF4	*clefG2	*	*clefG2	*	*clefF4	*	*	*	*	*clefC4	*	*	*	*	*clefC3	*	*	*	*	*clefC1	*	*	*	*	*clefG2	*	*clefG2	*	*clefG2	*	*clefG2	*
*	*	*	*	*	*	*	*	*	*	*mclefGv2	*	*	*	*	*mclefG2	*	*	*	*	*mclefG2	*	*	*	*	*	*	*	*	*	*	*	*
*	*	*	*	*	*	*	*	*	*	*	*	*	*	*	*	*	*	*	*	*	*	*	*	*	*ITrd1c2	*	*ITrd1c2	*	*ITrd1c2	*	*ITrd1c2	*
*	*	*	*	*	*	*	*	*	*	*ok[e-b-]	*	*	*	*	*ok[e-b-]	*	*	*	*	*	*	*	*	*	*	*	*	*	*	*	*	*
*k[b-e-]	*k[b-e-]	*	*k[b-e-]	*	*k[b-e-]	*	*	*	*	*k[b-e-]	*	*	*	*	*k[b-e-]	*	*	*	*	*k[b-e-]	*	*	*	*	*k[b-e-]	*	*k[b-e-]	*	*k[b-e-]	*	*k[b-e-]	*
*B-:	*B-:	*	*B-:	*	*B-:	*	*	*	*	*B-:	*	*	*	*	*B-:	*	*	*	*	*B-:	*	*	*	*	*B-:	*	*B-:	*	*B-:	*	*B-:	*
*M3/4	*M3/4	*	*M3/4	*	*M3/4	*	*	*	*	*M3/4	*	*	*	*	*M3/4	*	*	*	*	*M3/4	*	*	*	*	*M3/4	*	*M3/4	*	*M3/4	*	*M3/4	*
=1	=1	=1	=1	=1	=1	=1	=1	=1	=1	=1	=1	=1	=1	=1	=1	=1	=1	=1	=1	=1	=1	=1	=1	=1	=1	=1	=1	=1	=1	=1	=1	=1
*	*	*	*	*	*	*	*	*	*	*	*	*	*	*	*	*	*	*	*	*	*	*	*	*	*	*	*	*	*2\right	*	*2\right	*
!	!	!	!	!LO:MO:null:mod=!LO&colon;DY&colon;ed=brack	!	!	!	!	!	!	!	!	!	!	!	!	!	!	!	!	!	!	!	!	!	!	!	!	!	!LO:MO:null:mod=!LO&colon;DY&colon;ed=brack	!	!
!	!	!	!	!	!	!	!	!	!	!	!	!	!	!	!	!	!	!	!	!	!	!	!	!	!	!LO:DY:a:t=for	!	!	!	!	!LO:TX:a:t=allo:mod=	!LO:DY:b:t=for.
!LO:TX:a:t=P:problem=brak skanu	!LO:TX:a:t=allo:mod=	!LO:DY:a:t=for:rj	!	!LO:MO:null:mod=f	!	!	!	!	!LO:DY:ed=brack	!LO:TX:a:t=allo:mod=	!	!	!LO:DY:a:t=for	!LO:DY:a:t=for	!	!	!	!	!LO:DY:ed=brack	!LO:TX:a:t=allo:mod=	!	!	!	!LO:DY:ed=brack	!LO:TX:a:t=allo:mod=	!	!LO:TX:a:t=allo:mod=	!LO:DY:a:t=for	!LO:TX:a:t=allo:mod=	!LO:MO:null:mod=f	!	!
2.ryy	16f\LL	f	4b-\ 4bb-	.	4B-\	Cre-	Cre-	.	f	4d\	Cre-	Cre-	f	f	4f\	Cre-	Cre-	.	f	4b-\	Cre-	Cre-	.	f	4d/	f	4b-\	f	2.dd\	.	2.bb-\	f
.	16dd\	.	.	.	.	.	.	.	.	.	.	.	.	.	.	.	.	.	.	.	.	.	.	.	.	.	.	.	.	.	.	.
.	16f\	.	.	.	.	.	.	.	.	.	.	.	.	.	.	.	.	.	.	.	.	.	.	.	.	.	.	.	.	.	.	.
.	16dd\JJ	.	.	.	.	.	.	.	.	.	.	.	.	.	.	.	.	.	.	.	.	.	.	.	.	.	.	.	.	.	.	.
*	*rep	*	*	*	*	*	*	*	*	*	*	*	*	*	*	*	*	*	*	*	*	*	*	*	*	*	*	*	*	*	*	*
.	16f\LL	.	8r	.	4B-\	-do	-do	.	.	4d\	-do	-do	.	.	4f\	-do	-do	.	.	4b-\	-do	-do	.	.	4d/	.	4b-\	.	.	.	.	.
.	16dd\	.	.	.	.	.	.	.	.	.	.	.	.	.	.	.	.	.	.	.	.	.	.	.	.	.	.	.	.	.	.	.
.	16f\	.	16b-\LL	.	.	.	.	.	.	.	.	.	.	.	.	.	.	.	.	.	.	.	.	.	.	.	.	.	.	.	.	.
.	16dd\JJ	.	16cc\JJ	.	.	.	.	.	.	.	.	.	.	.	.	.	.	.	.	.	.	.	.	.	.	.	.	.	.	.	.	.
*	*Xrep	*	*	*	*	*	*	*	*	*	*	*	*	*	*	*	*	*	*	*	*	*	*	*	*	*	*	*	*	*	*	*
*	*rep	*	*	*	*	*	*	*	*	*	*	*	*	*	*	*	*	*	*	*	*	*	*	*	*	*	*	*	*	*	*	*
.	16f\LL	.	8b-\L	.	4B-\	in	in	.	.	4d\	in	in	.	.	4f\	in	in	.	.	4b-\	in	in	.	.	4d/	.	4b-\	.	.	.	.	.
.	16dd\	.	.	.	.	.	.	.	.	.	.	.	.	.	.	.	.	.	.	.	.	.	.	.	.	.	.	.	.	.	.	.
.	16f\	.	8b-\J	.	.	.	.	.	.	.	.	.	.	.	.	.	.	.	.	.	.	.	.	.	.	.	.	.	.	.	.	.
.	16dd\JJ	.	.	.	.	.	.	.	.	.	.	.	.	.	.	.	.	.	.	.	.	.	.	.	.	.	.	.	.	.	.	.
*	*Xrep	*	*	*	*	*	*	*	*	*	*	*	*	*	*	*	*	*	*	*	*	*	*	*	*	*	*	*	*	*	*	*
=2	=2	=2	=2	=2	=2	=2	=2	=2	=2	=2	=2	=2	=2	=2	=2	=2	=2	=2	=2	=2	=2	=2	=2	=2	=2	=2	=2	=2	=2	=2	=2	=2
*	*2\right	*	*	*	*	*	*	*	*	*	*	*	*	*	*	*	*	*	*	*	*	*	*	*	*	*	*	*	*	*	*	*
*	*tremolo	*	*	*	*2\right	*	*	*	*	*2\right	*	*	*	*	*2\right	*	*	*	*	*2\right	*	*	*	*	*	*	*	*	*	*	*	*
2.ryy	16f\LL	.	4a\ 4ff	.	2A\	u-	u-	.	.	2c\	u-	u-	.	.	2f\	u-	u-	.	.	2cc\	u-	u-	.	.	4f/	.	4cc\	.	2.cc\	.	2.ff\	.
.	16cc\	.	.	.	.	.	.	.	.	.	.	.	.	.	.	.	.	.	.	.	.	.	.	.	.	.	.	.	.	.	.	.
.	16f\	.	.	.	.	.	.	.	.	.	.	.	.	.	.	.	.	.	.	.	.	.	.	.	.	.	.	.	.	.	.	.
.	16cc\	.	.	.	.	.	.	.	.	.	.	.	.	.	.	.	.	.	.	.	.	.	.	.	.	.	.	.	.	.	.	.
.	16f\	.	8r	.	.	.	.	.	.	.	.	.	.	.	.	.	.	.	.	.	.	.	.	.	4f/	.	4cc\	.	.	.	.	.
.	16cc\	.	.	.	.	.	.	.	.	.	.	.	.	.	.	.	.	.	.	.	.	.	.	.	.	.	.	.	.	.	.	.
.	16f\	.	16f/LL	.	.	.	.	.	.	.	.	.	.	.	.	.	.	.	.	.	.	.	.	.	.	.	.	.	.	.	.	.
.	16cc\	.	16g/JJ	.	.	.	.	.	.	.	.	.	.	.	.	.	.	.	.	.	.	.	.	.	.	.	.	.	.	.	.	.
.	16f\	.	8f/L	.	4A\	-num	-num,	.	.	4c\	-num	-num,	.	.	4f\	-num	-num,	.	.	4cc\	-num	-num,	.	.	4f/	.	4cc\	.	.	.	.	.
.	16cc\	.	.	.	.	.	.	.	.	.	.	.	.	.	.	.	.	.	.	.	.	.	.	.	.	.	.	.	.	.	.	.
.	16f\	.	8f/J	.	.	.	.	.	.	.	.	.	.	.	.	.	.	.	.	.	.	.	.	.	.	.	.	.	.	.	.	.
.	16cc\JJ	.	.	.	.	.	.	.	.	.	.	.	.	.	.	.	.	.	.	.	.	.	.	.	.	.	.	.	.	.	.	.
=3	=3	=3	=3	=3	=3	=3	=3	=3	=3	=3	=3	=3	=3	=3	=3	=3	=3	=3	=3	=3	=3	=3	=3	=3	=3	=3	=3	=3	=3	=3	=3	=3
2.ryy	16f\LL	.	4d/ 4b-	.	4B-\	in	in	.	.	4B-\	in	in	.	.	4f\	in	in	.	.	4dd\	in	in	.	.	4b-\	.	4dd\	.	2.dd\	.	2.ff\	.
.	16dd\	.	.	.	.	.	.	.	.	.	.	.	.	.	.	.	.	.	.	.	.	.	.	.	.	.	.	.	.	.	.	.
.	16f\	.	.	.	.	.	.	.	.	.	.	.	.	.	.	.	.	.	.	.	.	.	.	.	.	.	.	.	.	.	.	.
.	16dd\	.	.	.	.	.	.	.	.	.	.	.	.	.	.	.	.	.	.	.	.	.	.	.	.	.	.	.	.	.	.	.
.	16f\	.	8r	.	4B-\	u-	u-	.	.	4B-\	u-	u-	.	.	4f\	u-	u-	.	.	4dd\	u-	u-	.	.	4b-\	.	4dd\	.	.	.	.	.
.	16dd\	.	.	.	.	.	.	.	.	.	.	.	.	.	.	.	.	.	.	.	.	.	.	.	.	.	.	.	.	.	.	.
.	16f\	.	16b-\LL	.	.	.	.	.	.	.	.	.	.	.	.	.	.	.	.	.	.	.	.	.	.	.	.	.	.	.	.	.
.	16dd\	.	16cc\JJ	.	.	.	.	.	.	.	.	.	.	.	.	.	.	.	.	.	.	.	.	.	.	.	.	.	.	.	.	.
.	16f\	.	8b-\L	.	4B-\	-num	-num	.	.	4B-\	-num	-num	.	.	4f\	-num	-num	.	.	4dd\	-num	-num	.	.	4b-\	.	4dd\	.	.	.	.	.
.	16dd\	.	.	.	.	.	.	.	.	.	.	.	.	.	.	.	.	.	.	.	.	.	.	.	.	.	.	.	.	.	.	.
.	16f\	.	8ff\J	.	.	.	.	.	.	.	.	.	.	.	.	.	.	.	.	.	.	.	.	.	.	.	.	.	.	.	.	.
.	16dd\JJ	.	.	.	.	.	.	.	.	.	.	.	.	.	.	.	.	.	.	.	.	.	.	.	.	.	.	.	.	.	.	.
*	*Xtremolo	*	*	*	*	*	*	*	*	*	*	*	*	*	*	*	*	*	*	*	*	*	*	*	*	*	*	*	*	*	*	*
=4	=4	=4	=4	=4	=4	=4	=4	=4	=4	=4	=4	=4	=4	=4	=4	=4	=4	=4	=4	=4	=4	=4	=4	=4	=4	=4	=4	=4	=4	=4	=4	=4
.	.	.	8qqff/	.	.	.	.	.	.	.	.	.	.	.	.	.	.	.	.	.	.	.	.	.	.	.	.	.	.	.	.	.
2.ryy	4f/ 4a	.	4ee-\	.	4F\	De-	De-	.	.	4c\	De-	De-	.	.	4f\	De-	De-	.	.	4ee-\	De-	De-	.	.	4cc\	.	4ee-\	.	4cc\	.	4ee-\	.
.	4f/ 4b-	.	4dd\	.	4BB-/	-um	-um,	.	.	4B-\	-um	-um,	.	.	4f\	-um	-um,	.	.	4dd\	-um	-um,	.	.	4b-\	.	4dd\	.	4b-\	.	4dd\	.
.	4r	.	4r	.	4r	.	.	.	.	4r	.	.	.	.	4r	.	.	.	.	4r	.	.	.	.	4r	.	4r	.	4b-\	.	8dd\L	.
.	.	.	.	.	.	.	.	.	.	.	.	.	.	.	.	.	.	.	.	.	.	.	.	.	.	.	.	.	.	.	8ee-\J	.
=5	=5	=5	=5	=5	=5	=5	=5	=5	=5	=5	=5	=5	=5	=5	=5	=5	=5	=5	=5	=5	=5	=5	=5	=5	=5	=5	=5	=5	=5	=5	=5	=5
!	!	!LO:DY:a:t=p.:rj	!	!LO:DY:a:t=p.	!	!	!	!	!	!	!	!	!	!	!	!	!	!	!	!	!	!	!	!	!	!	!	!	!	!	!	!
!	!	!	!	!	!	!	!	!	!LO:DY:ed=brack	!LO:N:vis=00	!	!	!	!	!	!	!	!	!LO:DY:ed=brack	!	!	!	!LO:DY:a:t=p.	!LO:DY:a:t=p.	!LO:N:vis=00	!	!LO:N:vis=00	!	!	!	!	!
2.ryy	2.f/	p	8ff\L	p	4D\	Pa-	Pa-	.	p	0.r	.	.	.	.	4f\	Pa-	Pa-	.	p	4b-\	Pa-	Pa-	p	p	0.r	.	0.r	.	4b-\	.	4ff\	.
.	.	.	8dd\	.	.	.	.	.	.	.	.	.	.	.	.	.	.	.	.	.	.	.	.	.	.	.	.	.	.	.	.	.
.	.	.	8cc\	.	4D\	-tre(m)	-tre(m)	.	.	.	.	.	.	.	4f\	-tre(m)	-tre(m)	.	.	4b-\	-trem	-trem	.	.	.	.	.	.	4r	.	4r	.
.	.	.	8b-\J	.	.	.	.	.	.	.	.	.	.	.	.	.	.	.	.	.	.	.	.	.	.	.	.	.	.	.	.	.
.	.	.	8bb-\L	.	4D\	o-	o-	.	.	.	.	.	.	.	4f\	O-	o-	.	.	4b-\	o-	o-	.	.	.	.	.	.	4r	.	4r	.
.	.	.	8aa-X\J	.	.	.	.	.	.	.	.	.	.	.	.	.	.	.	.	.	.	.	.	.	.	.	.	.	.	.	.	.
=6	=6	=6	=6	=6	=6	=6	=6	=6	=6	=6	=6	=6	=6	=6	=6	=6	=6	=6	=6	=6	=6	=6	=6	=6	=6	=6	=6	=6	=6	=6	=6	=6
!	!LO:TX:t=P:mixedbeam:problem	!	!	!	!	!	!	!	!	!	!	!	!	!	!	!	!	!	!	!	!	!	!	!	!	!	!	!	!LO:N:vis=00	!	!LO:N:vis=00	!
2.ryy	8g/L	.	8ff#X\L	.	2E-\	-mni-	-mni-	.	.	.	.	.	.	.	2g\	-mni-	-mni-	.	.	2b-\	-mni-	-mni-	.	.	.	.	.	.	0.r	.	0.r	.
.	(>8e-/	.	8gg\J	.	.	.	.	.	.	.	.	.	.	.	.	.	.	.	.	.	.	.	.	.	.	.	.	.	.	.	.	.
*	*	*	*2\right	*	*	*	*	*	*	*	*	*	*	*	*	*	*	*	*	*	*	*	*	*	*	*	*	*	*	*	*	*
.	8ee-\	.	2gg\	.	.	.	.	.	.	.	.	.	.	.	.	.	.	.	.	.	.	.	.	.	.	.	.	.	.	.	.	.
.	8dd\	.	.	.	.	.	.	.	.	.	.	.	.	.	.	.	.	.	.	.	.	.	.	.	.	.	.	.	.	.	.	.
.	8cc\	.	.	.	4E-\	-po-	-po-	.	.	.	.	.	.	.	4g\	-po-	-po-	.	.	4b-\	-po-	-po-	.	.	.	.	.	.	.	.	.	.
.	8b-\J)	.	.	.	.	.	.	.	.	.	.	.	.	.	.	.	.	.	.	.	.	.	.	.	.	.	.	.	.	.	.	.
!	!	!	!LO:LB:g=original	!	!	!	!	!	!	!	!	!	!	!	!	!	!	!	!	!LO:LB:g=original	!	!	!	!	!	!	!	!	!	!	!	!
=7	=7	=7	=7	=7	=7	=7	=7	=7	=7	=7	=7	=7	=7	=7	=7	=7	=7	=7	=7	=7	=7	=7	=7	=7	=7	=7	=7	=7	=7	=7	=7	=7
2.ryy	2.a/	.	8ee-\L	.	4F\	.	-ten-	.	.	.	.	.	.	.	4a\	-ten-	-ten-	.	.	4a\	-ten-	-ten-	.	.	.	.	.	.	.	.	.	.
.	.	.	8cc\	.	.	.	.	.	.	.	.	.	.	.	.	.	.	.	.	.	.	.	.	.	.	.	.	.	.	.	.	.
.	.	.	8b-\	.	4F\	-ten-	-em,	.	.	.	.	.	.	.	4a\	-te(m)	-te(m),	.	.	4cc\	-te(m)	-te(m),	.	.	.	.	.	.	.	.	.	.
.	.	.	8a\J	.	.	.	.	.	.	.	.	.	.	.	.	.	.	.	.	.	.	.	.	.	.	.	.	.	.	.	.	.
.	.	.	8f\L	.	4F\	-em	fa-	.	.	.	.	.	.	.	4a\	fa-	fa-	.	.	4ee-\	fa-	fa-	.	.	.	.	.	.	.	.	.	.
.	.	.	8ee-\J	.	.	.	.	.	.	.	.	.	.	.	.	.	.	.	.	.	.	.	.	.	.	.	.	.	.	.	.	.
!	!	!	!	!	!LO:LB:g=original	!	!	!	!	!	!	!	!	!	!	!	!	!	!	!	!	!	!	!	!	!	!	!	!	!	!	!
=8	=8	=8	=8	=8	=8	=8	=8	=8	=8	=8	=8	=8	=8	=8	=8	=8	=8	=8	=8	=8	=8	=8	=8	=8	=8	=8	=8	=8	=8	=8	=8	=8
2.ryy	4b-/	.	8ee-\L	.	2G\	fa-	-cto-	.	.	.	.	.	.	.	2b-\	-cto-	-cto-	.	.	8ee-\L	-cto-	-cto-	.	.	.	.	.	.	.	.	.	.
!	!	!	!	!	!	!	!	!	!	!	!	!	!	!	!	!	!	!	!	!LO:SIC:o=8dd\J	!	!	!	!	!	!	!	!	!	!	!	!
.	.	.	8dd\	.	.	.	.	.	.	.	.	.	.	.	.	.	.	.	.	8dd\	.	.	.	.	.	.	.	.	.	.	.	.
!	!	!	!	!	!	!	!	!	!	!	!	!	!	!	!	!	!	!	!	!LO:SIC:o=8cc\L	!	!	!	!	!	!	!	!	!	!	!	!
.	4d/	.	8cc\	.	.	.	.	.	.	.	.	.	.	.	.	.	.	.	.	8cc\	-rem	.	.	.	.	.	.	.	.	.	.	.
.	.	.	8b-\J	.	.	.	.	.	.	.	.	.	.	.	.	.	.	.	.	8b-\J	.	.	.	.	.	.	.	.	.	.	.	.
.	4d/	.	4b-\	.	4G\	-cto-	-rem	.	.	.	.	.	.	.	4b-\	-rem	-rem	.	.	4b-\	.	-rem	.	.	.	.	.	.	.	.	.	.
!	!	!	!	!	!	!	!	!	!	!	!	!	!	!	!LO:LB:g=original	!	!	!	!	!	!	!	!	!	!	!	!	!	!	!	!	!
=9	=9	=9	=9	=9	=9	=9	=9	=9	=9	=9	=9	=9	=9	=9	=9	=9	=9	=9	=9	=9	=9	=9	=9	=9	=9	=9	=9	=9	=9	=9	=9	=9
!	!	!	!	!	!	!	!	!	!	!LO:N:vis=00	!	!	!	!	!	!	!	!	!	!	!	!	!	!	!LO:N:vis=00	!	!LO:N:vis=00	!	!	!	!	!
2.ryy	2.f/	.	8ff\L	.	4D\	.	cae-	.	.	0.r	.	.	.	.	4f\	Ce-	cae-	.	.	4b-\	Ce-	cae-	.	.	0.r	.	0.r	.	.	.	.	.
.	.	.	8dd\J	.	.	.	.	.	.	.	.	.	.	.	.	.	.	.	.	.	.	.	.	.	.	.	.	.	.	.	.	.
.	.	.	8cc\L	.	4D\	-rem	-li	.	.	.	.	.	.	.	4f\	-li	-li	.	.	4b-\	-li	-li	.	.	.	.	.	.	.	.	.	.
.	.	.	8b-\	.	.	.	.	.	.	.	.	.	.	.	.	.	.	.	.	.	.	.	.	.	.	.	.	.	.	.	.	.
.	.	.	8a\	.	4D\	et	et	.	.	.	.	.	.	.	4f\	et	et	.	.	4b-\	et	et	.	.	.	.	.	.	.	.	.	.
.	.	.	8b-\J	.	.	.	.	.	.	.	.	.	.	.	.	.	.	.	.	.	.	.	.	.	.	.	.	.	.	.	.	.
!	!LO:LB:g=original	!	!	!	!	!	!	!	!	!	!	!	!	!	!	!	!	!	!	!	!	!	!	!	!	!	!	!	!	!	!	!
=10	=10	=10	=10	=10	=10	=10	=10	=10	=10	=10	=10	=10	=10	=10	=10	=10	=10	=10	=10	=10	=10	=10	=10	=10	=10	=10	=10	=10	=10	=10	=10	=10
!	!	!	!	!	!	!	!	!	!	!	!	!	!	!	!	!	!	!	!	!	!	!	!	!	!	!	!	!	!LO:N:vis=0	!	!LO:N:vis=0	!
2.ryy	4g/	.	8dd\L	.	4E-\	ter-	ter-	.	.	.	.	.	.	.	4g\	ter-	ter-	.	.	8dd\L	ter-	ter-	.	.	.	.	.	.	1.r	.	1.r	.
.	.	.	8cc\J	.	.	.	.	.	.	.	.	.	.	.	.	.	.	.	.	8cc\J	.	.	.	.	.	.	.	.	.	.	.	.
.	4g/	.	2cc\	.	2E-\	-re	-rae,	.	.	.	.	.	.	.	2g\	-re	-rae,	.	.	2cc\	-re	-rae,	.	.	.	.	.	.	.	.	.	.
.	4g/	.	.	.	.	.	.	.	.	.	.	.	.	.	.	.	.	.	.	.	.	.	.	.	.	.	.	.	.	.	.	.
=11	=11	=11	=11	=11	=11	=11	=11	=11	=11	=11	=11	=11	=11	=11	=11	=11	=11	=11	=11	=11	=11	=11	=11	=11	=11	=11	=11	=11	=11	=11	=11	=11
*	*	*	*	*	*	*ij	*ij	*	*	*	*	*	*	*	*	*ij	*ij	*	*	*	*ij	*ij	*	*	*	*	*	*	*	*	*	*
2.ryy	2.g/	.	8cc\L	.	4En\	et	cae-	.	.	.	.	.	.	.	4g\	Ce-	cae-	.	.	4cc\	ce-	cae-	.	.	.	.	.	.	.	.	.	.
.	.	.	8bb-\J	.	.	.	.	.	.	.	.	.	.	.	.	.	.	.	.	.	.	.	.	.	.	.	.	.	.	.	.	.
.	.	.	8gg\L	.	4E\	.	-li	.	.	.	.	.	.	.	4g\	-li	-li	.	.	4cc\	-li	-li	.	.	.	.	.	.	.	.	.	.
.	.	.	8een\J	.	.	.	.	.	.	.	.	.	.	.	.	.	.	.	.	.	.	.	.	.	.	.	.	.	.	.	.	.
.	.	.	8cc\L	.	4E\	.	et	.	.	.	.	.	.	.	4g\	et	et	.	.	4b-\	et	et	.	.	.	.	.	.	.	.	.	.
.	.	.	8b-\J	.	.	.	.	.	.	.	.	.	.	.	.	.	.	.	.	.	.	.	.	.	.	.	.	.	.	.	.	.
=12	=12	=12	=12	=12	=12	=12	=12	=12	=12	=12	=12	=12	=12	=12	=12	=12	=12	=12	=12	=12	=12	=12	=12	=12	=12	=12	=12	=12	=12	=12	=12	=12
2.ryy	8g/L	.	8b-\L	.	2F\	ter-	ter-	.	.	.	.	.	.	.	8g\L	ter-	ter-	.	.	8b-\L	ter-	ter-	.	.	.	.	.	.	2.r	.	2.r	.
.	8f/	.	8a\J	.	.	.	.	.	.	.	.	.	.	.	8f\	.	.	.	.	8a\	.	.	.	.	.	.	.	.	.	.	.	.
.	8b-/	.	8dd\L	.	.	.	.	.	.	.	.	.	.	.	8b-\	.	.	.	.	8dd\	-re	.	.	.	.	.	.	.	.	.	.	.
*	*	*	*	*	*	*	*	*	*	*	*	*	*	*	*	*	*	*	*	*	*Xij	*	*	*	*	*	*	*	*	*	*	*
.	8a/J	.	8cc\J	.	.	.	.	.	.	.	.	.	.	.	8a\J	.	.	.	.	8cc\J	.	.	.	.	.	.	.	.	.	.	.	.
.	4a/	.	4cc\	.	4F\	-re	-rae,	.	.	.	.	.	.	.	4a\	-re	-rae,	.	.	4cc\	vi-	-rae,	.	.	.	.	.	.	.	.	.	.
*	*	*	*	*	*	*Xij	*Xij	*	*	*	*	*	*	*	*	*Xij	*Xij	*	*	*	*	*Xij	*	*	*	*	*	*	*	*	*	*
=13	=13	=13	=13	=13	=13	=13	=13	=13	=13	=13	=13	=13	=13	=13	=13	=13	=13	=13	=13	=13	=13	=13	=13	=13	=13	=13	=13	=13	=13	=13	=13	=13
!	!LO:MO:mod=*null	!	!	!	!	!	!	!	!	!	!	!	!	!	!	!	!	!	!	!	!	!	!	!	!	!	!	!	!	!	!	!
*	*tremolo	*	*	*	*	*	*	*	*	*	*	*	*	*	*	*	*	*	*	*	*	*	*	*	*	*	*	*	*	*	*	*
!	!	!LO:DY:a:t=for	!	!LO:DY:a:t=for.	!	!	!	!	!	!	!	!	!	!	!	!	!	!	!	!	!	!	!	!	!	!	!	!	!	!	!	!
2.ryy	16g\LL	f	16cc\LL	f	8C/	vi-	vi-	.	.	8en\	Vi-	vi-	.	.	8g\	Vi-	vi-	.	.	8cc\	-ſi-	vi-	.	.	4cc\	.	4cc\	.	2.gg\	.	2.bb-\	.
.	16een\	.	16bb-\	.	.	.	.	.	.	.	.	.	.	.	.	.	.	.	.	.	.	.	.	.	.	.	.	.	.	.	.	.
.	16g\	.	16cc\	.	8C/	-si-	-si-	.	.	8e\	-si-	-si-	.	.	8g\	-si-	-si-	.	.	8cc\	-bi-	-si-	.	.	.	.	.	.	.	.	.	.
.	16ee\	.	16bb-\JJ	.	.	.	.	.	.	.	.	.	.	.	.	.	.	.	.	.	.	.	.	.	.	.	.	.	.	.	.	.
*	*	*	*rep	*	*	*	*	*	*	*	*	*	*	*	*	*	*	*	*	*	*	*	*	*	*	*	*	*	*	*	*	*
.	16g\	.	16cc\LL	.	4C/	-bi-	-bi-	.	.	4e\	-bi-	-bi-	.	.	8g\	-bi-	-bi-	.	.	4cc\	-li-	-bi-	.	.	4cc\	.	4cc\	.	.	.	.	.
.	16ee\	.	16bb-\	.	.	.	.	.	.	.	.	.	.	.	.	.	.	.	.	.	.	.	.	.	.	.	.	.	.	.	.	.
.	16g\	.	16cc\	.	.	.	.	.	.	.	.	.	.	.	4g\	-li-	-li-	.	.	.	.	.	.	.	.	.	.	.	.	.	.	.
.	16ee\	.	16bb-\JJ	.	.	.	.	.	.	.	.	.	.	.	.	.	.	.	.	.	.	.	.	.	.	.	.	.	.	.	.	.
*	*	*	*Xrep	*	*	*	*	*	*	*	*	*	*	*	*	*	*	*	*	*	*	*	*	*	*	*	*	*	*	*	*	*
*	*	*	*rep	*	*	*	*	*	*	*	*	*	*	*	*	*	*	*	*	*	*	*	*	*	*	*	*	*	*	*	*	*
.	16g\	.	16cc\LL	.	8C/	-li-	-li-	.	.	8e\	-li-	-li-	.	.	.	.	.	.	.	8cc\	-um	-li-	.	.	4cc\	.	4cc\	.	.	.	.	.
.	16ee\	.	16bb-\	.	.	.	.	.	.	.	.	.	.	.	.	.	.	.	.	.	.	.	.	.	.	.	.	.	.	.	.	.
.	16g\	.	16cc\	.	8C/	-um	-um	.	.	8e\	-um	-um	.	.	8g\	-um	-um	.	.	8cc\	.	-um	.	.	.	.	.	.	.	.	.	.
.	16ee\JJ	.	16bb-\JJ	.	.	.	.	.	.	.	.	.	.	.	.	.	.	.	.	.	.	.	.	.	.	.	.	.	.	.	.	.
*	*	*	*Xrep	*	*	*	*	*	*	*	*	*	*	*	*	*	*	*	*	*	*	*	*	*	*	*	*	*	*	*	*	*
!	!	!	!LO:LB:g=original	!	!	!	!	!	!	!	!	!	!	!	!	!	!	!	!	!LO:LB:g=original	!	!	!	!	!	!	!	!	!	!	!	!
=14	=14	=14	=14	=14	=14	=14	=14	=14	=14	=14	=14	=14	=14	=14	=14	=14	=14	=14	=14	=14	=14	=14	=14	=14	=14	=14	=14	=14	=14	=14	=14	=14
*	*	*	*	*	*	*	*	*	*	*	*	*	*	*	*	*	*	*	*	*	*	*	*	*	*	*	*2\right	*	*	*	*	*
2.ryy	16a\LL	.	16cc\LL	.	4F\	o-	o-	.	.	4f\	O-	o-	.	.	8a\	O-	o-	.	.	8cc\	O-	o-	.	.	4f/	.	2.cc\	.	2.ff\	.	2.aa\	.
.	16ff\	.	16aa\	.	.	.	.	.	.	.	.	.	.	.	.	.	.	.	.	.	.	.	.	.	.	.	.	.	.	.	.	.
.	16a\	.	16cc\	.	.	.	.	.	.	.	.	.	.	.	8a\	-mni-	-mni-	.	.	8cc\	-mni-	-mni-	.	.	.	.	.	.	.	.	.	.
.	16ff\	.	16aa\JJ	.	.	.	.	.	.	.	.	.	.	.	.	.	.	.	.	.	.	.	.	.	.	.	.	.	.	.	.	.
*	*	*	*rep	*	*	*	*	*	*	*	*	*	*	*	*	*	*	*	*	*	*	*	*	*	*	*	*	*	*	*	*	*
.	16a\	.	16cc\LL	.	8F\	-mni-	-mni-	.	.	8f\	-mni-	-mni-	.	.	4a\	-um	-um,	.	.	4cc\	-um	-um,	.	.	4f/	.	.	.	.	.	.	.
.	16ff\	.	16aa\	.	.	.	.	.	.	.	.	.	.	.	.	.	.	.	.	.	.	.	.	.	.	.	.	.	.	.	.	.
.	16a\	.	16cc\	.	8F\	-u(m)	-u(m),	.	.	8f\	-u(m)	-u(m),	.	.	.	.	.	.	.	.	.	.	.	.	.	.	.	.	.	.	.	.
.	16ff\	.	16aa\JJ	.	.	.	.	.	.	.	.	.	.	.	.	.	.	.	.	.	.	.	.	.	.	.	.	.	.	.	.	.
*	*	*	*Xrep	*	*	*	*	*	*	*	*	*	*	*	*	*	*	*	*	*	*	*	*	*	*	*	*	*	*	*	*	*
*	*	*	*rep	*	*	*	*	*	*	*	*	*	*	*	*	*	*	*	*	*	*	*	*	*	*	*	*	*	*	*	*	*
.	16a\	.	16cc\LL	.	8F\	et	et	.	.	8f\	et	et	.	.	8a\	et	et	.	.	8cc\	et	et	.	.	4f/	.	.	.	.	.	.	.
.	16ff\	.	16aa\	.	.	.	.	.	.	.	.	.	.	.	.	.	.	.	.	.	.	.	.	.	.	.	.	.	.	.	.	.
.	16a\	.	16cc\	.	8F\	in-	in-	.	.	8f\	in-	in-	.	.	8a\	in-	in-	.	.	8cc\	in-	in-	.	.	.	.	.	.	.	.	.	.
.	16ff\JJ	.	16aa\JJ	.	.	.	.	.	.	.	.	.	.	.	.	.	.	.	.	.	.	.	.	.	.	.	.	.	.	.	.	.
*	*	*	*Xrep	*	*	*	*	*	*	*	*	*	*	*	*	*	*	*	*	*	*	*	*	*	*	*	*	*	*	*	*	*
!	!	!	!	!	!LO:LB:g=original	!	!	!	!	!LO:LB:g=original	!	!	!	!	!	!	!	!	!	!	!	!	!	!	!	!	!	!	!	!	!	!
=15	=15	=15	=15	=15	=15	=15	=15	=15	=15	=15	=15	=15	=15	=15	=15	=15	=15	=15	=15	=15	=15	=15	=15	=15	=15	=15	=15	=15	=15	=15	=15	=15
*	*	*	*	*	*	*	*	*	*	*	*	*	*	*	*	*	*	*	*	*	*	*	*	*	*2\right	*	*	*	*	*	*	*
2.ryy	16g\LL	.	16cc\LL	.	2C/	-vi-	-vi-	.	.	2en\	-vi-	-vi-	.	.	2g\	-vi-	-vi-	.	.	2cc\	-vi-	-vi-	.	.	2.cc\	.	4cc\	.	2.gg\	.	2.bb-\	.
.	16een\	.	16bb-\	.	.	.	.	.	.	.	.	.	.	.	.	.	.	.	.	.	.	.	.	.	.	.	.	.	.	.	.	.
.	16g\	.	16cc\	.	.	.	.	.	.	.	.	.	.	.	.	.	.	.	.	.	.	.	.	.	.	.	.	.	.	.	.	.
.	16ee\	.	16bb-\JJ	.	.	.	.	.	.	.	.	.	.	.	.	.	.	.	.	.	.	.	.	.	.	.	.	.	.	.	.	.
*	*	*	*rep	*	*	*	*	*	*	*	*	*	*	*	*	*	*	*	*	*	*	*	*	*	*	*	*	*	*	*	*	*
.	16g\	.	16cc\LL	.	.	.	.	.	.	.	.	.	.	.	.	.	.	.	.	.	.	.	.	.	.	.	4cc\	.	.	.	.	.
.	16ee\	.	16bb-\	.	.	.	.	.	.	.	.	.	.	.	.	.	.	.	.	.	.	.	.	.	.	.	.	.	.	.	.	.
.	16g\	.	16cc\	.	.	.	.	.	.	.	.	.	.	.	.	.	.	.	.	.	.	.	.	.	.	.	.	.	.	.	.	.
.	16ee\	.	16bb-\JJ	.	.	.	.	.	.	.	.	.	.	.	.	.	.	.	.	.	.	.	.	.	.	.	.	.	.	.	.	.
*	*	*	*Xrep	*	*	*	*	*	*	*	*	*	*	*	*	*	*	*	*	*	*	*	*	*	*	*	*	*	*	*	*	*
*	*	*	*rep	*	*	*	*	*	*	*	*	*	*	*	*	*	*	*	*	*	*	*	*	*	*	*	*	*	*	*	*	*
.	16g\	.	16cc\LL	.	4C/	-si-	-si-	.	.	4e\	-si-	-si-	.	.	4g\	-si-	-si-	.	.	4cc\	-si-	-si-	.	.	.	.	4cc\	.	.	.	.	.
.	16ee\	.	16bb-\	.	.	.	.	.	.	.	.	.	.	.	.	.	.	.	.	.	.	.	.	.	.	.	.	.	.	.	.	.
.	16g\	.	16cc\	.	.	.	.	.	.	.	.	.	.	.	.	.	.	.	.	.	.	.	.	.	.	.	.	.	.	.	.	.
.	16ee\JJ	.	16bb-\JJ	.	.	.	.	.	.	.	.	.	.	.	.	.	.	.	.	.	.	.	.	.	.	.	.	.	.	.	.	.
*	*	*	*Xrep	*	*	*	*	*	*	*	*	*	*	*	*	*	*	*	*	*	*	*	*	*	*	*	*	*	*	*	*	*
!	!	!	!	!	!	!	!	!	!	!	!	!	!	!	!LO:LB:g=original	!	!	!	!	!	!	!	!	!	!	!	!	!	!	!	!	!
=16	=16	=16	=16	=16	=16	=16	=16	=16	=16	=16	=16	=16	=16	=16	=16	=16	=16	=16	=16	=16	=16	=16	=16	=16	=16	=16	=16	=16	=16	=16	=16	=16
2.ryy	16a\LL	.	16cc\LL	.	4.F\	-bi-	-bi-	.	.	4.f\	-bi-	-bi-	.	.	4.a\	-bi-	-bi-	.	.	4.cc\	-bi-	-bi-	.	.	2.f/	.	2.cc\	.	2.ff\	.	2.aa\	.
.	16ff\	.	16aa\	.	.	.	.	.	.	.	.	.	.	.	.	.	.	.	.	.	.	.	.	.	.	.	.	.	.	.	.	.
.	16a\	.	16cc\	.	.	.	.	.	.	.	.	.	.	.	.	.	.	.	.	.	.	.	.	.	.	.	.	.	.	.	.	.
.	16ff\	.	16aa\JJ	.	.	.	.	.	.	.	.	.	.	.	.	.	.	.	.	.	.	.	.	.	.	.	.	.	.	.	.	.
*	*	*	*rep	*	*	*	*	*	*	*	*	*	*	*	*	*	*	*	*	*	*	*	*	*	*	*	*	*	*	*	*	*
.	16a\	.	16cc\LL	.	.	.	.	.	.	.	.	.	.	.	.	.	.	.	.	.	.	.	.	.	.	.	.	.	.	.	.	.
.	16ff\	.	16aa\	.	.	.	.	.	.	.	.	.	.	.	.	.	.	.	.	.	.	.	.	.	.	.	.	.	.	.	.	.
.	16a\	.	16cc\	.	8F\	-li-	-li-	.	.	8f\	-li-	-li-	.	.	8a\	-li-	-li-	.	.	8cc\	-li-	-li-	.	.	.	.	.	.	.	.	.	.
.	16ff\	.	16aa\JJ	.	.	.	.	.	.	.	.	.	.	.	.	.	.	.	.	.	.	.	.	.	.	.	.	.	.	.	.	.
*	*	*	*Xrep	*	*	*	*	*	*	*	*	*	*	*	*	*	*	*	*	*	*	*	*	*	*	*	*	*	*	*	*	*
*	*	*	*rep	*	*	*	*	*	*	*	*	*	*	*	*	*	*	*	*	*	*	*	*	*	*	*	*	*	*	*	*	*
.	16a\	.	16cc\LL	.	4F\	-um	-um.	.	.	4f\	-um	-um.	.	.	4a\	-um	-um.	.	.	4cc\	-um	-um.	.	.	.	.	.	.	.	.	.	.
.	16ff\	.	16aa\	.	.	.	.	.	.	.	.	.	.	.	.	.	.	.	.	.	.	.	.	.	.	.	.	.	.	.	.	.
.	16a\	.	16cc\	.	.	.	.	.	.	.	.	.	.	.	.	.	.	.	.	.	.	.	.	.	.	.	.	.	.	.	.	.
.	16ff\JJ	.	16aa\JJ	.	.	.	.	.	.	.	.	.	.	.	.	.	.	.	.	.	.	.	.	.	.	.	.	.	.	.	.	.
*	*	*	*Xrep	*	*	*	*	*	*	*	*	*	*	*	*	*	*	*	*	*	*	*	*	*	*	*	*	*	*	*	*	*
!	!	!	!	!	!	!	!	!	!	!	!	!	!	!	!	!	!	!	!	!	!	!	!	!	!	!	!	!	!LO:LB:g=original	!	!	!
=17	=17	=17	=17	=17	=17	=17	=17	=17	=17	=17	=17	=17	=17	=17	=17	=17	=17	=17	=17	=17	=17	=17	=17	=17	=17	=17	=17	=17	=17	=17	=17	=17
!	!	!	!LO:TX:t=P:problem=mixedbeam	!	!	!	!	!	!	!	!	!	!	!	!	!	!	!	!	!	!	!	!	!	!LO:TX:a:t=17:mod=	!	!LO:TX:a:t=17.:mod=	!	!	!	!	!
2.ryy	16en/LL	.	16a/LL	.	8A\	et	Et	.	.	8A\	et	Et	.	.	8en\	et	Et	.	.	8cc#X\	et	Et	.	.	2.r	.	2.r	.	2.eenX\	.	2.gg\	.
.	16cc#X/	.	16gg\	.	.	.	.	.	.	.	.	.	.	.	.	.	.	.	.	.	.	.	.	.	.	.	.	.	.	.	.	.
.	16e/	.	16a/	.	8A\	in	in	.	.	8A\	in	in	.	.	8e\	in	in	.	.	8cc#\	in	in	.	.	.	.	.	.	.	.	.	.
.	16cc#/	.	16gg\JJ	.	.	.	.	.	.	.	.	.	.	.	.	.	.	.	.	.	.	.	.	.	.	.	.	.	.	.	.	.
*	*	*	*rep	*	*	*	*	*	*	*	*	*	*	*	*	*	*	*	*	*	*	*	*	*	*	*	*	*	*	*	*	*
!	!	!	!LO:TX:t=P:problem=mixedbeam	!	!	!	!	!	!	!	!	!	!	!	!	!	!	!	!	!	!	!	!	!	!	!	!	!	!	!	!	!
.	16e/	.	16a/LL	.	4A\	u-	u-	.	.	4A\	u-	u-	.	.	4e\	u-	u-	.	.	4cc#\	u-	u-	.	.	.	.	.	.	.	.	.	.
.	16cc#/	.	16gg\	.	.	.	.	.	.	.	.	.	.	.	.	.	.	.	.	.	.	.	.	.	.	.	.	.	.	.	.	.
.	16e/	.	16a/	.	.	.	.	.	.	.	.	.	.	.	.	.	.	.	.	.	.	.	.	.	.	.	.	.	.	.	.	.
.	16cc#/	.	16gg\JJ	.	.	.	.	.	.	.	.	.	.	.	.	.	.	.	.	.	.	.	.	.	.	.	.	.	.	.	.	.
*	*	*	*Xrep	*	*	*	*	*	*	*	*	*	*	*	*	*	*	*	*	*	*	*	*	*	*	*	*	*	*	*	*	*
*	*	*	*rep	*	*	*	*	*	*	*	*	*	*	*	*	*	*	*	*	*	*	*	*	*	*	*	*	*	*	*	*	*
!	!	!	!LO:TX:t=P:problem=mixedbeam	!	!	!	!	!	!	!	!	!	!	!	!	!	!	!	!	!	!	!	!	!	!	!	!	!	!	!	!	!
.	16e/	.	16a/LL	.	4A\	-num	-num	.	.	4A\	-num	-num	.	.	8e\	-nu(m)	-nu(m)	.	.	4cc#\	-num	-num	.	.	.	.	.	.	.	.	.	.
.	16cc#/	.	16gg\	.	.	.	.	.	.	.	.	.	.	.	.	.	.	.	.	.	.	.	.	.	.	.	.	.	.	.	.	.
.	16e/	.	16a/	.	.	.	.	.	.	.	.	.	.	.	8ryy	.	.	.	.	.	.	.	.	.	.	.	.	.	.	.	.	.
.	16cc#/JJ	.	16gg\JJ	.	.	.	.	.	.	.	.	.	.	.	.	.	.	.	.	.	.	.	.	.	.	.	.	.	.	.	.	.
*	*	*	*Xrep	*	*	*	*	*	*	*	*	*	*	*	*	*	*	*	*	*	*	*	*	*	*	*	*	*	*	*	*	*
=18	=18	=18	=18	=18	=18	=18	=18	=18	=18	=18	=18	=18	=18	=18	=18	=18	=18	=18	=18	=18	=18	=18	=18	=18	=18	=18	=18	=18	=18	=18	=18	=18
2.ryy	16f/LL	.	16a\LL	.	4.D\	Do-	Do-	.	.	4.A\	Do-	Do-	.	.	4.f\	Do-	Do-	.	.	4.dd\	Do-	Do-	.	.	2.r	.	2.r	.	2.dd\	.	2.ff\	.
.	16dd/	.	16ff\	.	.	.	.	.	.	.	.	.	.	.	.	.	.	.	.	.	.	.	.	.	.	.	.	.	.	.	.	.
.	16f/	.	16a\	.	.	.	.	.	.	.	.	.	.	.	.	.	.	.	.	.	.	.	.	.	.	.	.	.	.	.	.	.
.	16dd/	.	16ff\JJ	.	.	.	.	.	.	.	.	.	.	.	.	.	.	.	.	.	.	.	.	.	.	.	.	.	.	.	.	.
*	*	*	*rep	*	*	*	*	*	*	*	*	*	*	*	*	*	*	*	*	*	*	*	*	*	*	*	*	*	*	*	*	*
.	16f/	.	16a\LL	.	.	.	.	.	.	.	.	.	.	.	.	.	.	.	.	.	.	.	.	.	.	.	.	.	.	.	.	.
.	16dd/	.	16ff\	.	.	.	.	.	.	.	.	.	.	.	.	.	.	.	.	.	.	.	.	.	.	.	.	.	.	.	.	.
.	16f/	.	16a\	.	8D\	-mi-	-mi-	.	.	8A\	-mi-	-mi-	.	.	8f\	-mi-	-mi-	.	.	8dd\	-mi-	-mi-	.	.	.	.	.	.	.	.	.	.
.	16dd/	.	16ff\JJ	.	.	.	.	.	.	.	.	.	.	.	.	.	.	.	.	.	.	.	.	.	.	.	.	.	.	.	.	.
*	*	*	*Xrep	*	*	*	*	*	*	*	*	*	*	*	*	*	*	*	*	*	*	*	*	*	*	*	*	*	*	*	*	*
*	*	*	*rep	*	*	*	*	*	*	*	*	*	*	*	*	*	*	*	*	*	*	*	*	*	*	*	*	*	*	*	*	*
.	16f/	.	16a\LL	.	4D\	-num	-num	.	.	4A\	-nu(m)	-nu(m)	.	.	4f\	-nu(m)	-nu(m)	.	.	4dd\	-nu(m)	-nu(m)	.	.	.	.	.	.	.	.	.	.
.	16dd/	.	16ff\	.	.	.	.	.	.	.	.	.	.	.	.	.	.	.	.	.	.	.	.	.	.	.	.	.	.	.	.	.
.	16f/	.	16a\	.	.	.	.	.	.	.	.	.	.	.	.	.	.	.	.	.	.	.	.	.	.	.	.	.	.	.	.	.
.	16dd/JJ	.	16ff\JJ	.	.	.	.	.	.	.	.	.	.	.	.	.	.	.	.	.	.	.	.	.	.	.	.	.	.	.	.	.
*	*	*	*Xrep	*	*	*	*	*	*	*	*	*	*	*	*	*	*	*	*	*	*	*	*	*	*	*	*	*	*	*	*	*
!	!	!	!	!	!	!	!	!	!	!	!	!	!	!	!	!	!	!	!	!	!	!	!	!	!	!	!	!	!	!	!LO:LB:g=original	!
=19	=19	=19	=19	=19	=19	=19	=19	=19	=19	=19	=19	=19	=19	=19	=19	=19	=19	=19	=19	=19	=19	=19	=19	=19	=19	=19	=19	=19	=19	=19	=19	=19
!	!	!	!	!	!	!	!	!	!	!	!	!	!	!	!LO:SIC:v:o=2e-\	!	!	!	!	!	!	!	!	!	!	!	!	!	!	!	!	!
2.ryy	16en/LL	.	16a\LL	.	2A\	Je-	Je-	.	.	2A\	Je-	Je-	.	.	2en\	Je-	Je-	.	.	2cc#X\	Je-	Je-	.	.	2.r	.	2.r	.	2.eenX\	.	2.gg\	.
.	16cc#X/	.	16gg\	.	.	.	.	.	.	.	.	.	.	.	.	.	.	.	.	.	.	.	.	.	.	.	.	.	.	.	.	.
.	16e/	.	16a\	.	.	.	.	.	.	.	.	.	.	.	.	.	.	.	.	.	.	.	.	.	.	.	.	.	.	.	.	.
.	16cc#/	.	16gg\JJ	.	.	.	.	.	.	.	.	.	.	.	.	.	.	.	.	.	.	.	.	.	.	.	.	.	.	.	.	.
*	*	*	*rep	*	*	*	*	*	*	*	*	*	*	*	*	*	*	*	*	*	*	*	*	*	*	*	*	*	*	*	*	*
.	16e/	.	16a\LL	.	.	.	.	.	.	.	.	.	.	.	.	.	.	.	.	.	.	.	.	.	.	.	.	.	.	.	.	.
.	16cc#/	.	16gg\	.	.	.	.	.	.	.	.	.	.	.	.	.	.	.	.	.	.	.	.	.	.	.	.	.	.	.	.	.
.	16e/	.	16a\	.	.	.	.	.	.	.	.	.	.	.	.	.	.	.	.	.	.	.	.	.	.	.	.	.	.	.	.	.
.	16cc#/	.	16gg\JJ	.	.	.	.	.	.	.	.	.	.	.	.	.	.	.	.	.	.	.	.	.	.	.	.	.	.	.	.	.
*	*	*	*Xrep	*	*	*	*	*	*	*	*	*	*	*	*	*	*	*	*	*	*	*	*	*	*	*	*	*	*	*	*	*
!	!	!	!LO:LB:g=original	!	!	!	!	!	!	!	!	!	!	!	!	!	!	!	!	!	!	!	!	!	!	!	!	!	!	!	!	!
!	!	!	!	!	!	!	!	!	!	!	!	!	!	!	!LO:SIC:v:o=4e-\	!	!	!	!	!	!	!	!	!	!	!	!	!	!	!	!	!
.	16e/	.	16a\LL	.	4A\	-sum	-sum	.	.	4A\	-sum	-sum	.	.	4e\	-sum	-sum	.	.	4cc#\	-sum	-sum	.	.	.	.	.	.	.	.	.	.
.	16cc#/	.	16gg\	.	.	.	.	.	.	.	.	.	.	.	.	.	.	.	.	.	.	.	.	.	.	.	.	.	.	.	.	.
.	16e/	.	16a\	.	.	.	.	.	.	.	.	.	.	.	.	.	.	.	.	.	.	.	.	.	.	.	.	.	.	.	.	.
.	16cc#/JJ	.	16gg\JJ	.	.	.	.	.	.	.	.	.	.	.	.	.	.	.	.	.	.	.	.	.	.	.	.	.	.	.	.	.
=20	=20	=20	=20	=20	=20	=20	=20	=20	=20	=20	=20	=20	=20	=20	=20	=20	=20	=20	=20	=20	=20	=20	=20	=20	=20	=20	=20	=20	=20	=20	=20	=20
2.ryy	16f/LL	.	16a\LL	.	8D\	Chri-	Chri-	.	.	8A\	X-	Chri-	.	.	8f\	X-	Chri-	.	.	8dd\	Chri-	Chri-	.	.	2.r	.	2.r	.	2.dd\	.	2.ff\	.
.	16dd/	.	16ff\	.	.	.	.	.	.	.	.	.	.	.	.	.	.	.	.	.	.	.	.	.	.	.	.	.	.	.	.	.
.	16f/	.	16a\	.	8D\	-stu(m)	-stu(m),	.	.	8A\	-tum	-stum,	.	.	8f\	-tum	-stum,	.	.	8dd\	-stum	-stum,	.	.	.	.	.	.	.	.	.	.
.	16dd/	.	16ff\JJ	.	.	.	.	.	.	.	.	.	.	.	.	.	.	.	.	.	.	.	.	.	.	.	.	.	.	.	.	.
!	!	!	!	!	!	!	!	!	!	!	!	!	!	!	!	!	!	!	!	!LO:LB:g=original	!	!	!	!	!	!	!	!	!	!	!	!
*	*	*	*rep	*	*	*	*	*	*	*	*	*	*	*	*	*	*	*	*	*	*	*	*	*	*	*	*	*	*	*	*	*
.	16f/	.	16a\LL	.	4D\	fi-	Fi-	.	.	4A\	Fi-	Fi-	.	.	8f\	Fi-	Fi-	.	.	4dd\	fi-	Fi-	.	.	.	.	.	.	.	.	.	.
.	16dd/	.	16ff\	.	.	.	.	.	.	.	.	.	.	.	.	.	.	.	.	.	.	.	.	.	.	.	.	.	.	.	.	.
.	16f/	.	16a\	.	.	.	.	.	.	.	.	.	.	.	16f\	-li-	-li-	.	.	.	.	.	.	.	.	.	.	.	.	.	.	.
.	16dd/	.	16ff\JJ	.	.	.	.	.	.	.	.	.	.	.	16f\	-u(m)	-u(m)	.	.	.	.	.	.	.	.	.	.	.	.	.	.	.
*	*	*	*Xrep	*	*	*	*	*	*	*	*	*	*	*	*	*	*	*	*	*	*	*	*	*	*	*	*	*	*	*	*	*
*	*	*	*rep	*	*	*	*	*	*	*	*	*	*	*	*	*	*	*	*	*	*	*	*	*	*	*	*	*	*	*	*	*
.	16f/	.	16a\LL	.	8D\	-li-	-li-	.	.	8A\	-li-	-li-	.	.	8f\	De-	De-	.	.	8dd\	-li-	-li-	.	.	.	.	.	.	.	.	.	.
.	16dd/	.	16ff\	.	.	.	.	.	.	.	.	.	.	.	.	.	.	.	.	.	.	.	.	.	.	.	.	.	.	.	.	.
.	16f/	.	16a\	.	8D\	-um	-um	.	.	8A\	-um	-um	.	.	8f\	-i	-i	.	.	8dd\	-um	-um	.	.	.	.	.	.	.	.	.	.
.	16dd/JJ	.	16ff\JJ	.	.	.	.	.	.	.	.	.	.	.	.	.	.	.	.	.	.	.	.	.	.	.	.	.	.	.	.	.
*	*	*	*Xrep	*	*	*	*	*	*	*	*	*	*	*	*	*	*	*	*	*	*	*	*	*	*	*	*	*	*	*	*	*
!	!LO:LB:g=original	!	!	!	!	!	!	!	!	!	!	!	!	!	!	!	!	!	!	!	!	!	!	!	!	!	!	!	!	!	!	!
=21	=21	=21	=21	=21	=21	=21	=21	=21	=21	=21	=21	=21	=21	=21	=21	=21	=21	=21	=21	=21	=21	=21	=21	=21	=21	=21	=21	=21	=21	=21	=21	=21
2.ryy	16d/LL	.	16g\LL	.	8G\	De-	De-	.	.	8d\	De-	De-	.	.	8g\	u-	u-	.	.	8ff\	De-	De-	.	.	2.r	.	2.r	.	2.dd\	.	2.ff\	.
.	16bn/	.	16ff\	.	.	.	.	.	.	.	.	.	.	.	.	.	.	.	.	.	.	.	.	.	.	.	.	.	.	.	.	.
.	16d/	.	16g\	.	8G\	-i	-i	.	.	8d\	-i	-i	.	.	8g\	-ni-	-ni-	.	.	8ff\	-i	-i	.	.	.	.	.	.	.	.	.	.
.	16b/	.	16ff\JJ	.	.	.	.	.	.	.	.	.	.	.	.	.	.	.	.	.	.	.	.	.	.	.	.	.	.	.	.	.
*	*	*	*rep	*	*	*	*	*	*	*	*	*	*	*	*	*	*	*	*	*	*	*	*	*	*	*	*	*	*	*	*	*
.	16d/	.	16g\LL	.	8G\	u-	u-	.	.	8d\	u-	u-	.	.	8g\	-ge-	-ge-	.	.	8ff\	u-	u-	.	.	.	.	.	.	.	.	.	.
.	16b/	.	16ff\	.	.	.	.	.	.	.	.	.	.	.	.	.	.	.	.	.	.	.	.	.	.	.	.	.	.	.	.	.
.	16d/	.	16g\	.	8G\	-ni-	-ni-	.	.	8d\	-ni-	-ni-	.	.	8g\	-ni-	-ni-	.	.	8ff\	-ni-	-ni-	.	.	.	.	.	.	.	.	.	.
.	16b/	.	16ff\JJ	.	.	.	.	.	.	.	.	.	.	.	.	.	.	.	.	.	.	.	.	.	.	.	.	.	.	.	.	.
*	*	*	*Xrep	*	*	*	*	*	*	*	*	*	*	*	*	*	*	*	*	*	*	*	*	*	*	*	*	*	*	*	*	*
!	!	!	!	!	!	!	!	!	!	!	!	!	!	!	!LO:LB:g=original	!	!	!	!	!	!	!	!	!	!	!	!	!	!	!	!	!
*	*	*	*rep	*	*	*	*	*	*	*	*	*	*	*	*	*	*	*	*	*	*	*	*	*	*	*	*	*	*	*	*	*
.	16d/	.	16g\LL	.	16G\	-ge-	-ge-	.	.	8d\	-ge-	-ge-	.	.	4g\	-tum	-tum.	.	.	8ff\	-ge-	-ge-	.	.	.	.	.	.	.	.	.	.
.	16b/	.	16ff\	.	16G\	-ni-	-ni-	.	.	.	.	.	.	.	.	.	.	.	.	.	.	.	.	.	.	.	.	.	.	.	.	.
!	!	!	!	!	!LO:LB:g=original	!	!	!	!	!	!	!	!	!	!	!	!	!	!	!	!	!	!	!	!	!	!	!	!	!	!	!
.	16d/	.	16g\	.	8G\	-tum	-tum.	.	.	16d\	-ni-	-ni-	.	.	.	.	.	.	.	16ff\	-ni-	-ni-	.	.	.	.	.	.	.	.	.	.
.	16b/JJ	.	16ff\JJ	.	.	.	.	.	.	16d\	-tum	-tum.	.	.	.	.	.	.	.	16ff\	-tum	-tum.	.	.	.	.	.	.	.	.	.	.
*	*	*	*Xrep	*	*	*	*	*	*	*	*	*	*	*	*	*	*	*	*	*	*	*	*	*	*	*	*	*	*	*	*	*
!	!	!	!	!	!	!	!	!	!	!LO:LB:g=original	!	!	!	!	!	!	!	!	!	!	!	!	!	!	!	!	!	!	!	!	!	!
=22	=22	=22	=22	=22	=22	=22	=22	=22	=22	=22	=22	=22	=22	=22	=22	=22	=22	=22	=22	=22	=22	=22	=22	=22	=22	=22	=22	=22	=22	=22	=22	=22
!	!LO:SIC:v:o=16e-/LL	!	!	!	!	!	!	!	!	!	!	!	!	!	!	!	!	!	!	!	!	!	!	!	!	!	!	!	!	!	!LO:SIC:v:o=2.ee-\	!
2.ryy	16en/LL	.	16g\LL	.	8C/	et	Et	.	.	8c\	et	Et	.	.	8g\	et	Et	.	.	8een\	et	Et	.	.	2.r	.	2.r	.	2.cc\	.	2.een\	.
.	16cc/	.	16een\	.	.	.	.	.	.	.	.	.	.	.	.	.	.	.	.	.	.	.	.	.	.	.	.	.	.	.	.	.
!	!LO:SIC:v:o=16e-/	!	!	!	!	!	!	!	!	!	!	!	!	!	!	!	!	!	!	!	!	!	!	!	!	!	!	!	!	!	!	!
.	16e/	.	16g\	.	8C/	ex	ex	.	.	8c\	ex	ex	.	.	8g\	ex	ex	.	.	8ee\	ex	ex	.	.	.	.	.	.	.	.	.	.
.	16cc/	.	16ee\JJ	.	.	.	.	.	.	.	.	.	.	.	.	.	.	.	.	.	.	.	.	.	.	.	.	.	.	.	.	.
*	*	*	*rep	*	*	*	*	*	*	*	*	*	*	*	*	*	*	*	*	*	*	*	*	*	*	*	*	*	*	*	*	*
!	!LO:SIC:v:o=16e-/	!	!	!	!	!	!	!	!	!	!	!	!	!	!	!	!	!	!	!	!	!	!	!	!	!	!	!	!	!	!	!
.	16e/	.	16g\LL	.	8C/	Pa-	Pa-	.	.	8c\	Pa-	Pa-	.	.	8g\	pa-	Pa-	.	.	8ee\	pa-	Pa-	.	.	.	.	.	.	.	.	.	.
.	16cc/	.	16ee\	.	.	.	.	.	.	.	.	.	.	.	.	.	.	.	.	.	.	.	.	.	.	.	.	.	.	.	.	.
!	!LO:SIC:v:o=16e-/	!	!	!	!	!	!	!	!	!	!	!	!	!	!	!	!	!	!	!	!	!	!	!	!	!	!	!	!	!	!	!
.	16e/	.	16g\	.	8C/	-tre	-tre	.	.	8c\	-tre	-tre	.	.	8g\	-tre	-tre	.	.	8ee\	-tre	-tre	.	.	.	.	.	.	.	.	.	.
.	16cc/	.	16ee\JJ	.	.	.	.	.	.	.	.	.	.	.	.	.	.	.	.	.	.	.	.	.	.	.	.	.	.	.	.	.
*	*	*	*Xrep	*	*	*	*	*	*	*	*	*	*	*	*	*	*	*	*	*	*	*	*	*	*	*	*	*	*	*	*	*
*	*	*	*rep	*	*	*	*	*	*	*	*	*	*	*	*	*	*	*	*	*	*	*	*	*	*	*	*	*	*	*	*	*
!	!LO:SIC:v:o=16e-/	!	!	!	!	!	!	!	!	!	!	!	!	!	!	!	!	!	!	!	!	!	!	!	!	!	!	!	!	!	!	!
.	16e/	.	16g\LL	.	8C/	na-	na-	.	.	8c\	na-	na-	.	.	8g\	na-	na-	.	.	8ee\	na-	na-	.	.	.	.	.	.	.	.	.	.
.	16cc/	.	16ee\	.	.	.	.	.	.	.	.	.	.	.	.	.	.	.	.	.	.	.	.	.	.	.	.	.	.	.	.	.
!	!LO:SIC:v:o=16e-/	!	!	!	!	!	!	!	!	!	!	!	!	!	!	!	!	!	!	!	!	!	!	!	!	!	!	!	!	!	!	!
.	16e/	.	16g\	.	8C/	-tum	-tum	.	.	8c\	-tum	-tum	.	.	8g\	-tum	-tum	.	.	8ee\	-tu(m)	-tu(m)	.	.	.	.	.	.	.	.	.	.
.	16cc/JJ	.	16ee\JJ	.	.	.	.	.	.	.	.	.	.	.	.	.	.	.	.	.	.	.	.	.	.	.	.	.	.	.	.	.
*	*	*	*Xrep	*	*	*	*	*	*	*	*	*	*	*	*	*	*	*	*	*	*	*	*	*	*	*	*	*	*	*	*	*
=23	=23	=23	=23	=23	=23	=23	=23	=23	=23	=23	=23	=23	=23	=23	=23	=23	=23	=23	=23	=23	=23	=23	=23	=23	=23	=23	=23	=23	=23	=23	=23	=23
2.ryy	16d/LL	.	16g\LL	.	8G\	an-	an-	.	.	8d\	an-	an-	.	.	8g\	an-	an-	.	.	8ff\	an-	an-	.	.	2.r	.	2.r	.	2.dd\	.	2.ff\	.
.	16bn/	.	16ff\	.	.	.	.	.	.	.	.	.	.	.	.	.	.	.	.	.	.	.	.	.	.	.	.	.	.	.	.	.
.	16d/	.	16g\	.	8G\	-te	-te	.	.	8d\	-te	-te	.	.	8g\	-te	-te	.	.	8ff\	-te	-te	.	.	.	.	.	.	.	.	.	.
.	16b/	.	16ff\JJ	.	.	.	.	.	.	.	.	.	.	.	.	.	.	.	.	.	.	.	.	.	.	.	.	.	.	.	.	.
*	*	*	*rep	*	*	*	*	*	*	*	*	*	*	*	*	*	*	*	*	*	*	*	*	*	*	*	*	*	*	*	*	*
.	16d/	.	16g\LL	.	8G\	O-	o-	.	.	8d\	o-	o-	.	.	8g\	o-	o-	.	.	8ff\	om-	o-	.	.	.	.	.	.	.	.	.	.
.	16b/	.	16ff\	.	.	.	.	.	.	.	.	.	.	.	.	.	.	.	.	.	.	.	.	.	.	.	.	.	.	.	.	.
.	16d/	.	16g\	.	8G\	-mni-	-mni-	.	.	16d\	-mni-	-mni-	.	.	16g\	-mni-	-mni-	.	.	16ff\	-ni-	-mni-	.	.	.	.	.	.	.	.	.	.
.	16b/	.	16ff\JJ	.	.	.	.	.	.	16d\	-a	-a	.	.	16g\	-a	-a	.	.	16ff\	-a	-a	.	.	.	.	.	.	.	.	.	.
*	*	*	*Xrep	*	*	*	*	*	*	*	*	*	*	*	*	*	*	*	*	*	*	*	*	*	*	*	*	*	*	*	*	*
*	*	*	*rep	*	*	*	*	*	*	*	*	*	*	*	*	*	*	*	*	*	*	*	*	*	*	*	*	*	*	*	*	*
.	16d/	.	16g\LL	.	16G\	-a	-a	.	.	8d\	Se-	sae-	.	.	8g\	Se-	sae-	.	.	8ff\	Se-	sae-	.	.	.	.	.	.	.	.	.	.
.	16b/	.	16ff\	.	16G\	Se-	sae-	.	.	.	.	.	.	.	.	.	.	.	.	.	.	.	.	.	.	.	.	.	.	.	.	.
.	16d/	.	16g\	.	8G\	-cu-	-cu-	.	.	8d\	-cu-	-cu-	.	.	8g\	-cu-	-cu-	.	.	8ff\	-cu-	-cu-	.	.	.	.	.	.	.	.	.	.
.	16b/JJ	.	16ff\JJ	.	.	.	.	.	.	.	.	.	.	.	.	.	.	.	.	.	.	.	.	.	.	.	.	.	.	.	.	.
*	*Xtremolo	*	*Xrep	*	*	*	*	*	*	*	*	*	*	*	*	*	*	*	*	*	*	*	*	*	*	*	*	*	*	*	*	*
!	!	!	!	!	!	!	!	!	!	!	!	!	!	!	!	!	!	!	!	!LO:LB:g=original	!	!	!	!	!	!	!	!	!	!	!	!
=24	=24	=24	=24	=24	=24	=24	=24	=24	=24	=24	=24	=24	=24	=24	=24	=24	=24	=24	=24	=24	=24	=24	=24	=24	=24	=24	=24	=24	=24	=24	=24	=24
!	!	!	!	!	!	!	!	!	!	!	!	!	!	!	!	!	!	!	!	!	!	!	!	!	!	!	!	!	!	!	!LO:SIC:v:o=4ee-\	!
2.ryy	4cc\	.	4een\	.	4C/	-la	-la.	.	.	4c\	-la	-la.	.	.	4g\	-la	-la.	.	.	4een\	-la	-la.	.	.	2.r	.	2.r	.	4cc\	.	4een\	.
.	4c/	.	8r	.	4r	.	.	.	.	4r	.	.	.	.	4r	.	.	.	.	4r	.	.	.	.	.	.	.	.	4r	.	4ccc\	.
!	!	!	!	!LO:DY:a:t=p.	!	!	!	!	!	!	!	!	!	!	!	!	!	!	!	!	!	!	!	!	!	!	!	!	!	!	!	!
.	.	.	8cc\L	p	.	.	.	.	.	.	.	.	.	.	.	.	.	.	.	.	.	.	.	.	.	.	.	.	.	.	.	.
.	4r	.	8cc\	.	4r	.	.	.	.	4r	.	.	.	.	4r	.	.	.	.	4r	.	.	.	.	.	.	.	.	4r	.	4r	.
.	.	.	8cc\J	.	.	.	.	.	.	.	.	.	.	.	.	.	.	.	.	.	.	.	.	.	.	.	.	.	.	.	.	.
!	!	!	!LO:LB:g=original	!	!	!	!	!	!	!	!	!	!	!	!	!	!	!	!	!	!	!	!	!	!	!	!	!	!	!	!	!
=25	=25	=25	=25	=25	=25	=25	=25	=25	=25	=25	=25	=25	=25	=25	=25	=25	=25	=25	=25	=25	=25	=25	=25	=25	=25	=25	=25	=25	=25	=25	=25	=25
!	!	!LO:DY:a:t=p.	!	!	!LO:N:vis=00	!	!	!	!	!	!	!	!	!	!LO:N:vis=00	!	!	!	!	!LO:N:vis=00	!	!	!	!	!	!	!	!	!LO:N:vis=00	!	!LO:N:vis=00	!
2.ryy	8c/	p	8cc\L	.	0.r	.	.	.	.	4c\	De-	De-	.	.	0.r	.	.	.	.	0.r	.	.	.	.	2.r	.	2.r	.	0.r	.	0.r	.
.	4c/	.	8b-\	.	.	.	.	.	.	.	.	.	.	.	.	.	.	.	.	.	.	.	.	.	.	.	.	.	.	.	.	.
.	.	.	8b-\	.	.	.	.	.	.	4c\	-u(m)	-u(m)	.	.	.	.	.	.	.	.	.	.	.	.	.	.	.	.	.	.	.	.
.	4c/	.	8b-\J	.	.	.	.	.	.	.	.	.	.	.	.	.	.	.	.	.	.	.	.	.	.	.	.	.	.	.	.	.
.	.	.	8b-\L	.	.	.	.	.	.	4c\	de	de	.	.	.	.	.	.	.	.	.	.	.	.	.	.	.	.	.	.	.	.
.	8c/	.	8cc\J	.	.	.	.	.	.	.	.	.	.	.	.	.	.	.	.	.	.	.	.	.	.	.	.	.	.	.	.	.
=26	=26	=26	=26	=26	=26	=26	=26	=26	=26	=26	=26	=26	=26	=26	=26	=26	=26	=26	=26	=26	=26	=26	=26	=26	=26	=26	=26	=26	=26	=26	=26	=26
2.ryy	8c/	.	8b-/L	.	.	.	.	.	.	2c\	De-	De-	.	.	.	.	.	.	.	.	.	.	.	.	2.r	.	2.r	.	.	.	.	.
.	4c/	.	8a/	.	.	.	.	.	.	.	.	.	.	.	.	.	.	.	.	.	.	.	.	.	.	.	.	.	.	.	.	.
.	.	.	8a/	.	.	.	.	.	.	.	.	.	.	.	.	.	.	.	.	.	.	.	.	.	.	.	.	.	.	.	.	.
.	4c/	.	8a/J	.	.	.	.	.	.	.	.	.	.	.	.	.	.	.	.	.	.	.	.	.	.	.	.	.	.	.	.	.
.	.	.	8a/L	.	.	.	.	.	.	4c\	-o	-o,	.	.	.	.	.	.	.	.	.	.	.	.	.	.	.	.	.	.	.	.
.	8c/	.	8b-/J	.	.	.	.	.	.	.	.	.	.	.	.	.	.	.	.	.	.	.	.	.	.	.	.	.	.	.	.	.
=27	=27	=27	=27	=27	=27	=27	=27	=27	=27	=27	=27	=27	=27	=27	=27	=27	=27	=27	=27	=27	=27	=27	=27	=27	=27	=27	=27	=27	=27	=27	=27	=27
2.ryy	8c/	.	8cc\L	.	.	.	.	.	.	4c\	Lu-	lu-	.	.	.	.	.	.	.	.	.	.	.	.	2.r	.	2.r	.	.	.	.	.
.	4c/	.	8b-\	.	.	.	.	.	.	.	.	.	.	.	.	.	.	.	.	.	.	.	.	.	.	.	.	.	.	.	.	.
.	.	.	8b-\	.	.	.	.	.	.	4c\	-men	-men	.	.	.	.	.	.	.	.	.	.	.	.	.	.	.	.	.	.	.	.
.	4c/	.	8b-\J	.	.	.	.	.	.	.	.	.	.	.	.	.	.	.	.	.	.	.	.	.	.	.	.	.	.	.	.	.
.	.	.	8b-\L	.	.	.	.	.	.	4c\	de	de	.	.	.	.	.	.	.	.	.	.	.	.	.	.	.	.	.	.	.	.
.	8c/	.	8cc\J	.	.	.	.	.	.	.	.	.	.	.	.	.	.	.	.	.	.	.	.	.	.	.	.	.	.	.	.	.
=28	=28	=28	=28	=28	=28	=28	=28	=28	=28	=28	=28	=28	=28	=28	=28	=28	=28	=28	=28	=28	=28	=28	=28	=28	=28	=28	=28	=28	=28	=28	=28	=28
2.ryy	8c/	.	8b-/L	.	.	.	.	.	.	4.c\	lu-	lu-	.	.	.	.	.	.	.	.	.	.	.	.	2.r	.	2.r	.	.	.	.	.
.	4c/	.	8a/	.	.	.	.	.	.	.	.	.	.	.	.	.	.	.	.	.	.	.	.	.	.	.	.	.	.	.	.	.
.	.	.	8a/	.	.	.	.	.	.	.	.	.	.	.	.	.	.	.	.	.	.	.	.	.	.	.	.	.	.	.	.	.
.	4c/	.	8a/J	.	.	.	.	.	.	8c\	-mi-	-mi-	.	.	.	.	.	.	.	.	.	.	.	.	.	.	.	.	.	.	.	.
!	!	!	!LO:TX:t=P:problem=mixedbeam	!	!	!	!	!	!	!	!	!	!	!	!	!	!	!	!	!	!	!	!	!	!	!	!	!	!	!	!	!
.	.	.	8a/L	.	.	.	.	.	.	4c\	-ne	-ne,	.	.	.	.	.	.	.	.	.	.	.	.	.	.	.	.	.	.	.	.
.	8a/	.	8ff\J	.	.	.	.	.	.	.	.	.	.	.	.	.	.	.	.	.	.	.	.	.	.	.	.	.	.	.	.	.
!	!	!	!	!	!	!	!	!	!	!LO:LB:g=original	!	!	!	!	!	!	!	!	!	!	!	!	!	!	!	!	!	!	!	!	!	!
=29	=29	=29	=29	=29	=29	=29	=29	=29	=29	=29	=29	=29	=29	=29	=29	=29	=29	=29	=29	=29	=29	=29	=29	=29	=29	=29	=29	=29	=29	=29	=29	=29
!	!	!	!	!	!LO:N:vis=00	!	!	!	!	!	!	!	!	!	!LO:N:vis=00	!	!	!	!	!LO:N:vis=00	!	!	!	!	!	!	!	!	!LO:N:vis=00	!	!LO:N:vis=00	!
2.ryy	8a/	.	8gg\L	.	0.r	.	.	.	.	2f\	De-	De-	.	.	0.r	.	.	.	.	0.r	.	.	.	.	2.r	.	2.r	.	0.r	.	0.r	.
.	4a/	.	8ff\	.	.	.	.	.	.	.	.	.	.	.	.	.	.	.	.	.	.	.	.	.	.	.	.	.	.	.	.	.
.	.	.	8ff\	.	.	.	.	.	.	.	.	.	.	.	.	.	.	.	.	.	.	.	.	.	.	.	.	.	.	.	.	.
.	4a/	.	8ff\J	.	.	.	.	.	.	.	.	.	.	.	.	.	.	.	.	.	.	.	.	.	.	.	.	.	.	.	.	.
.	.	.	8een\L	.	.	.	.	.	.	4f\	-um	-um	.	.	.	.	.	.	.	.	.	.	.	.	.	.	.	.	.	.	.	.
.	8a/	.	8ff\J	.	.	.	.	.	.	.	.	.	.	.	.	.	.	.	.	.	.	.	.	.	.	.	.	.	.	.	.	.
=30	=30	=30	=30	=30	=30	=30	=30	=30	=30	=30	=30	=30	=30	=30	=30	=30	=30	=30	=30	=30	=30	=30	=30	=30	=30	=30	=30	=30	=30	=30	=30	=30
2.ryy	8g/	.	8gg\L	.	.	.	.	.	.	4f\	Ve-	ve-	.	.	.	.	.	.	.	.	.	.	.	.	2.r	.	2.r	.	.	.	.	.
.	4g/	.	8ff\	.	.	.	.	.	.	.	.	.	.	.	.	.	.	.	.	.	.	.	.	.	.	.	.	.	.	.	.	.
.	.	.	8ff\	.	.	.	.	.	.	4f\	-rum	-rum	.	.	.	.	.	.	.	.	.	.	.	.	.	.	.	.	.	.	.	.
.	4g/	.	8ff\J	.	.	.	.	.	.	.	.	.	.	.	.	.	.	.	.	.	.	.	.	.	.	.	.	.	.	.	.	.
!	!	!	!LO:SIC:v:o=8ee-\L	!	!	!	!	!	!	!	!	!	!	!	!	!	!	!	!	!	!	!	!	!	!	!	!	!	!	!	!	!
.	.	.	8een\L	.	.	.	.	.	.	4f\	de	de	.	.	.	.	.	.	.	.	.	.	.	.	.	.	.	.	.	.	.	.
.	8g/	.	8ff\J	.	.	.	.	.	.	.	.	.	.	.	.	.	.	.	.	.	.	.	.	.	.	.	.	.	.	.	.	.
!	!LO:LB:g=original	!	!	!	!	!	!	!	!	!	!	!	!	!	!	!	!	!	!	!	!	!	!	!	!	!	!	!	!	!	!	!
=31	=31	=31	=31	=31	=31	=31	=31	=31	=31	=31	=31	=31	=31	=31	=31	=31	=31	=31	=31	=31	=31	=31	=31	=31	=31	=31	=31	=31	=31	=31	=31	=31
2.ryy	4g/	.	2.een\	.	.	.	.	.	.	2en\	De-	De-	.	.	.	.	.	.	.	.	.	.	.	.	2.r	.	2.r	.	.	.	.	.
.	8f/L	.	.	.	.	.	.	.	.	.	.	.	.	.	.	.	.	.	.	.	.	.	.	.	.	.	.	.	.	.	.	.
!	!LO:SIC:v:o=8e-/	!	!	!	!	!	!	!	!	!	!	!	!	!	!	!	!	!	!	!	!	!	!	!	!	!	!	!	!	!	!	!
.	8en/	.	.	.	.	.	.	.	.	.	.	.	.	.	.	.	.	.	.	.	.	.	.	.	.	.	.	.	.	.	.	.
.	8d/	.	.	.	.	.	.	.	.	4e\	-o	-o	.	.	.	.	.	.	.	.	.	.	.	.	.	.	.	.	.	.	.	.
.	8c/J	.	.	.	.	.	.	.	.	.	.	.	.	.	.	.	.	.	.	.	.	.	.	.	.	.	.	.	.	.	.	.
!	!	!	!LO:LB:g=original	!	!	!	!	!	!	!	!	!	!	!	!	!	!	!	!	!	!	!	!	!	!	!	!	!	!	!	!	!
=32	=32	=32	=32	=32	=32	=32	=32	=32	=32	=32	=32	=32	=32	=32	=32	=32	=32	=32	=32	=32	=32	=32	=32	=32	=32	=32	=32	=32	=32	=32	=32	=32
2.ryy	2.Bn/	.	8een\L	.	.	.	.	.	.	2.f\	ve-	ve-	.	.	.	.	.	.	.	.	.	.	.	.	2.r	.	2.r	.	.	.	.	.
.	.	.	8ff\	.	.	.	.	.	.	.	.	.	.	.	.	.	.	.	.	.	.	.	.	.	.	.	.	.	.	.	.	.
.	.	.	8gg\	.	.	.	.	.	.	.	.	.	.	.	.	.	.	.	.	.	.	.	.	.	.	.	.	.	.	.	.	.
.	.	.	8ff\J	.	.	.	.	.	.	.	.	.	.	.	.	.	.	.	.	.	.	.	.	.	.	.	.	.	.	.	.	.
.	.	.	8ee\L	.	.	.	.	.	.	.	.	.	.	.	.	.	.	.	.	.	.	.	.	.	.	.	.	.	.	.	.	.
.	.	.	8ff\J	.	.	.	.	.	.	.	.	.	.	.	.	.	.	.	.	.	.	.	.	.	.	.	.	.	.	.	.	.
=33	=33	=33	=33	=33	=33	=33	=33	=33	=33	=33	=33	=33	=33	=33	=33	=33	=33	=33	=33	=33	=33	=33	=33	=33	=33	=33	=33	=33	=33	=33	=33	=33
!	!	!	!LO:SIC:v:o=2.ee-\	!	!	!	!	!	!	!LO:SIC:v:o=4e-\	!	!	!	!	!	!	!	!	!	!	!	!	!	!	!	!	!	!	!	!	!	!
2.ryy	8c/L	.	2.een\	.	2.r	.	.	.	.	4en\	-ro	-ro.	.	.	2.r	.	.	.	.	2.r	.	.	.	.	2.r	.	2.r	.	2.r	.	2.r	.
.	8g/	.	.	.	.	.	.	.	.	.	.	.	.	.	.	.	.	.	.	.	.	.	.	.	.	.	.	.	.	.	.	.
.	8b-X/	.	.	.	.	.	.	.	.	4r	.	.	.	.	.	.	.	.	.	.	.	.	.	.	.	.	.	.	.	.	.	.
.	8g/	.	.	.	.	.	.	.	.	.	.	.	.	.	.	.	.	.	.	.	.	.	.	.	.	.	.	.	.	.	.	.
.	8cc/	.	.	.	.	.	.	.	.	4r	.	.	.	.	.	.	.	.	.	.	.	.	.	.	.	.	.	.	.	.	.	.
.	8b-/J	.	.	.	.	.	.	.	.	.	.	.	.	.	.	.	.	.	.	.	.	.	.	.	.	.	.	.	.	.	.	.
=34	=34	=34	=34	=34	=34	=34	=34	=34	=34	=34	=34	=34	=34	=34	=34	=34	=34	=34	=34	=34	=34	=34	=34	=34	=34	=34	=34	=34	=34	=34	=34	=34
*	*tremolo	*	*	*	*	*	*	*	*	*	*	*	*	*	*	*	*	*	*	*	*	*	*	*	*	*	*	*	*	*	*	*
!	!	!	!	!LO:MO:null:mod=!LO&colon;DY&colon;ed=brack	!	!	!	!	!	!	!	!	!	!	!	!	!	!	!	!	!	!	!	!	!	!	!	!	!	!	!	!
!	!	!	!	!	!	!	!	!	!	!	!	!	!	!	!	!	!	!	!	!	!	!	!	!	!	!	!	!	!	!	!	!
!	!	!LO:DY:a:t=for	!	!LO:MO:null:mod=f	!	!	!	!	!	!	!	!	!	!	!	!	!	!	!	!	!	!	!	!	!	!	!	!	!	!	!	!
2.ryy	16a/LL	f	16ff\LL	.	4.F\	Ge-	Ge-	.	.	4.c\	ge-	Ge-	.	.	4.a\	Ge-	Ge-	.	.	4.ff\	Ge-	Ge-	.	.	4cc\	.	4cc\	.	2.a\	.	2.ff\	.
.	16a/	.	16gg\	.	.	.	.	.	.	.	.	.	.	.	.	.	.	.	.	.	.	.	.	.	.	.	.	.	.	.	.	.
.	16a/	.	16aa\	.	.	.	.	.	.	.	.	.	.	.	.	.	.	.	.	.	.	.	.	.	.	.	.	.	.	.	.	.
.	16a/	.	16gg\JJ	.	.	.	.	.	.	.	.	.	.	.	.	.	.	.	.	.	.	.	.	.	.	.	.	.	.	.	.	.
.	16a/	.	8ff\L	.	.	.	.	.	.	.	.	.	.	.	.	.	.	.	.	.	.	.	.	.	4cc\	.	4cc\	.	.	.	.	.
.	16a/	.	.	.	.	.	.	.	.	.	.	.	.	.	.	.	.	.	.	.	.	.	.	.	.	.	.	.	.	.	.	.
.	16a/	.	8ff\	.	8F\	-ni-	-ni-	.	.	8c\	-ni-	-ni-	.	.	8a\	-ni-	-ni-	.	.	8ff\	-ni-	-ni-	.	.	.	.	.	.	.	.	.	.
.	16a/JJ	.	.	.	.	.	.	.	.	.	.	.	.	.	.	.	.	.	.	.	.	.	.	.	.	.	.	.	.	.	.	.
*	*Xtremolo	*	*	*	*	*	*	*	*	*	*	*	*	*	*	*	*	*	*	*	*	*	*	*	*	*	*	*	*	*	*	*
.	16a/LL	.	8ff\	.	8F\	-tum	-tum,	.	.	8c\	-tum	-tum,	.	.	8a\	-tu(m)	-tu(m),	.	.	8ff\	-tum	-tum,	.	.	4cc\	.	4r	.	.	.	.	.
.	16a/	.	.	.	.	.	.	.	.	.	.	.	.	.	.	.	.	.	.	.	.	.	.	.	.	.	.	.	.	.	.	.
.	16a/	.	8ff\J	.	8F\	non	non	.	.	8c\	non	non	.	.	8a\	non	non	.	.	8ff\	non	non	.	.	.	.	.	.	.	.	.	.
.	16a/JJ	.	.	.	.	.	.	.	.	.	.	.	.	.	.	.	.	.	.	.	.	.	.	.	.	.	.	.	.	.	.	.
!	!	!	!	!	!	!	!	!	!	!	!	!	!	!	!LO:LB:g=original	!	!	!	!	!	!	!	!	!	!	!	!	!	!	!	!	!
=35	=35	=35	=35	=35	=35	=35	=35	=35	=35	=35	=35	=35	=35	=35	=35	=35	=35	=35	=35	=35	=35	=35	=35	=35	=35	=35	=35	=35	=35	=35	=35	=35
*	*tremolo	*	*	*	*	*	*	*	*	*	*	*	*	*	*	*	*	*	*	*	*	*	*	*	*	*	*	*	*	*	*	*
2.ryy	16f\LL	.	8ff\L	.	8A\	fa-	fa-	.	.	8c\	fa-	fa-	.	.	8f\	fa-	fa-	.	.	8ee-X\	fa-	fa-	.	.	2cc\	.	2cc\	.	2.cc\	.	2.eenX\	.
.	16cc\	.	.	.	.	.	.	.	.	.	.	.	.	.	.	.	.	.	.	.	.	.	.	.	.	.	.	.	.	.	.	.
!	!	!	!LO:SIC:o=8ee-X\J	!	!	!	!	!	!	!	!	!	!	!	!	!	!	!	!	!	!	!	!	!	!	!	!	!	!	!	!	!
.	16f\	.	8ee-\J	.	8A\	-ctum	-ctum,	.	.	8c\	-ctu(m)	-ctu(m),	.	.	8f\	-ctum	-ctum,	.	.	8ee-\	-ctum	-ctum,	.	.	.	.	.	.	.	.	.	.
.	16cc\	.	.	.	.	.	.	.	.	.	.	.	.	.	.	.	.	.	.	.	.	.	.	.	.	.	.	.	.	.	.	.
!	!	!	!	!	!LO:LB:g=original	!	!	!	!	!	!	!	!	!	!	!	!	!	!	!	!	!	!	!	!	!	!	!	!	!	!	!
.	16f\	.	2ee-\	.	8A\	Con-	con-	.	.	8c\	Con-	con-	.	.	8f\	Con-	con-	.	.	8ee-\	Con-	con-	.	.	.	.	.	.	.	.	.	.
.	16cc\	.	.	.	.	.	.	.	.	.	.	.	.	.	.	.	.	.	.	.	.	.	.	.	.	.	.	.	.	.	.	.
.	16f\	.	.	.	8A\	-sub-	-sub-	.	.	8c\	-sub-	-sub-	.	.	8f\	-sub-	-sub-	.	.	8ee-\	-sub-	-sub-	.	.	.	.	.	.	.	.	.	.
.	16cc\	.	.	.	.	.	.	.	.	.	.	.	.	.	.	.	.	.	.	.	.	.	.	.	.	.	.	.	.	.	.	.
.	16f\	.	.	.	8A\	-stan-	-stan-	.	.	8c\	-stan-	-stan-	.	.	8f\	-stan-	-stan-	.	.	8ee-\	-stan-	-stan-	.	.	4cc\	.	4cc\	.	.	.	.	.
.	16cc\	.	.	.	.	.	.	.	.	.	.	.	.	.	.	.	.	.	.	.	.	.	.	.	.	.	.	.	.	.	.	.
.	16f\	.	.	.	8A\	-ti-	-ti-	.	.	8c\	-ti-	-ti-	.	.	8f\	-ti-	-ti-	.	.	8ee-\	-ti-	-ti-	.	.	.	.	.	.	.	.	.	.
.	16cc\JJ	.	.	.	.	.	.	.	.	.	.	.	.	.	.	.	.	.	.	.	.	.	.	.	.	.	.	.	.	.	.	.
=36	=36	=36	=36	=36	=36	=36	=36	=36	=36	=36	=36	=36	=36	=36	=36	=36	=36	=36	=36	=36	=36	=36	=36	=36	=36	=36	=36	=36	=36	=36	=36	=36
2.ryy	16f/LL	.	16dd\LL	.	8B-\	-a-	-a-	.	.	8B-\	-a-	-a-	.	.	8f\	-a-	-a-	.	.	8dd\	-a-	-a-	.	.	2b-\	.	2dd\	.	2.b-\	.	2.dd\	.
.	16f/	.	16cc\	.	.	.	.	.	.	.	.	.	.	.	.	.	.	.	.	.	.	.	.	.	.	.	.	.	.	.	.	.
.	16f/	.	16dd\	.	8B-\	-lem	-lem	.	.	8B-\	-lem	-lem	.	.	8f\	-lem	-lem	.	.	8dd\	-lem	-lem	.	.	.	.	.	.	.	.	.	.
.	16f/	.	16ee-\JJ	.	.	.	.	.	.	.	.	.	.	.	.	.	.	.	.	.	.	.	.	.	.	.	.	.	.	.	.	.
.	16f/	.	16dd\LL	.	4B-\	Pa-	Pa-	.	.	4B-\	Pa-	Pa-	.	.	4f\	Pa-	Pa-	.	.	4dd\	Pa-	Pa-	.	.	.	.	.	.	.	.	.	.
.	16f/	.	16dd\	.	.	.	.	.	.	.	.	.	.	.	.	.	.	.	.	.	.	.	.	.	.	.	.	.	.	.	.	.
.	16f/	.	16dd\	.	.	.	.	.	.	.	.	.	.	.	.	.	.	.	.	.	.	.	.	.	.	.	.	.	.	.	.	.
.	16f/	.	16dd\JJ	.	.	.	.	.	.	.	.	.	.	.	.	.	.	.	.	.	.	.	.	.	.	.	.	.	.	.	.	.
.	16f/	.	8dd\L	.	4B-\	-tri	-tri:	.	.	4d\	-tri	-tri:	.	.	4f\	-tri	-tri:	.	.	4dd\	-tri	-tri:	.	.	4cc\	.	4dd\	.	.	.	.	.
.	16f/	.	.	.	.	.	.	.	.	.	.	.	.	.	.	.	.	.	.	.	.	.	.	.	.	.	.	.	.	.	.	.
.	16f/	.	8dd\J	.	.	.	.	.	.	.	.	.	.	.	.	.	.	.	.	.	.	.	.	.	.	.	.	.	.	.	.	.
.	16f/JJ	.	.	.	.	.	.	.	.	.	.	.	.	.	.	.	.	.	.	.	.	.	.	.	.	.	.	.	.	.	.	.
*	*Xtremolo	*	*	*	*	*	*	*	*	*	*	*	*	*	*	*	*	*	*	*	*	*	*	*	*	*	*	*	*	*	*	*
!	!	!	!	!	!	!	!	!	!	!LO:LB:g=original	!	!	!	!	!	!	!	!	!	!	!	!	!	!	!	!	!	!	!	!	!	!
=37	=37	=37	=37	=37	=37	=37	=37	=37	=37	=37	=37	=37	=37	=37	=37	=37	=37	=37	=37	=37	=37	=37	=37	=37	=37	=37	=37	=37	=37	=37	=37	=37
!	!	!	!	!	!LO:MO:mod=2B-\	!	!	!	!	!	!	!	!	!	!	!	!	!	!	!	!	!	!	!	!	!	!	!	!	!	!	!
2.ryy	16c/LL	.	16een\LL	.	8B-\	per	per	.	.	2c\	per	per	.	.	2g\	per-	per-	.	.	2een\	per	per	.	.	4cc\	.	4cc\	.	2.g/	.	4eeX\	.
.	16g/	.	16dd\	.	.	.	.	.	.	.	.	.	.	.	.	.	.	.	.	.	.	.	.	.	.	.	.	.	.	.	.	.
!	!	!	!	!	!LO:MO:mod=.	!	!	!	!	!	!	!	!	!	!	!	!	!	!	!	!	!	!	!	!	!	!	!	!	!	!	!
.	16c/	.	16ee\	.	8B-\	.	.	.	.	.	.	.	.	.	.	.	.	.	.	.	.	.	.	.	.	.	.	.	.	.	.	.
.	16g/JJ	.	16ff\JJ	.	.	.	.	.	.	.	.	.	.	.	.	.	.	.	.	.	.	.	.	.	.	.	.	.	.	.	.	.
*	*rep	*	*tremolo	*	*	*	*	*	*	*	*	*	*	*	*	*	*	*	*	*	*	*	*	*	*	*	*	*	*	*	*	*
!	!	!	!	!	!LO:MO:mod=.	!	!	!	!	!	!	!	!	!	!	!	!	!	!	!	!	!	!	!	!	!	!	!	!	!	!	!
.	16c/LL	.	8ee\L	.	4B-\	quem	.	.	.	.	.	.	.	.	.	.	.	.	.	.	.	.	.	.	4cc\	.	4cc\	.	.	.	4ee\	.
.	16g/	.	.	.	.	.	.	.	.	.	.	.	.	.	.	.	.	.	.	.	.	.	.	.	.	.	.	.	.	.	.	.
.	16c/	.	8ee\	.	.	.	.	.	.	.	.	.	.	.	.	.	.	.	.	.	.	.	.	.	.	.	.	.	.	.	.	.
.	16g/JJ	.	.	.	.	.	.	.	.	.	.	.	.	.	.	.	.	.	.	.	.	.	.	.	.	.	.	.	.	.	.	.
*	*Xrep	*	*	*	*	*	*	*	*	*	*	*	*	*	*	*	*	*	*	*	*	*	*	*	*	*	*	*	*	*	*	*
*	*rep	*	*	*	*	*	*	*	*	*	*	*	*	*	*	*	*	*	*	*	*	*	*	*	*	*	*	*	*	*	*	*
.	16c/LL	.	8ee\	.	4B-\	.	quem	.	.	4c\	que(m)	que(m)	.	.	4g\	-quem	-quem	.	.	4ee\	que(m)	que(m)	.	.	4cc\	.	4cc\	.	.	.	4ee\	.
.	16g/	.	.	.	.	.	.	.	.	.	.	.	.	.	.	.	.	.	.	.	.	.	.	.	.	.	.	.	.	.	.	.
.	16c/	.	8ee\J	.	.	.	.	.	.	.	.	.	.	.	.	.	.	.	.	.	.	.	.	.	.	.	.	.	.	.	.	.
.	16g/JJ	.	.	.	.	.	.	.	.	.	.	.	.	.	.	.	.	.	.	.	.	.	.	.	.	.	.	.	.	.	.	.
*	*Xrep	*	*Xtremolo	*	*	*	*	*	*	*	*	*	*	*	*	*	*	*	*	*	*	*	*	*	*	*	*	*	*	*	*	*
!	!	!	!	!	!	!	!	!	!	!	!	!	!	!	!	!	!	!	!	!	!	!	!	!	!	!	!	!	!LO:LB:g=original	!	!	!
=38	=38	=38	=38	=38	=38	=38	=38	=38	=38	=38	=38	=38	=38	=38	=38	=38	=38	=38	=38	=38	=38	=38	=38	=38	=38	=38	=38	=38	=38	=38	=38	=38
*	*tremolo	*	*	*	*	*	*	*	*	*	*	*	*	*	*	*	*	*	*	*	*	*	*	*	*	*	*	*	*	*	*	*
2.ryy	16a/LL	.	16ff\LL	.	4A\	O-	o-	.	.	4.c\	o-	o-	.	.	4.a\	o-	o-	.	.	4.ff\	om-	o-	.	.	4f/	.	4cc\	.	2.a\	.	2.ff\	.
!	!	!	!LO:SIC:v:o=16ee-\	!	!	!	!	!	!	!	!	!	!	!	!	!	!	!	!	!	!	!	!	!	!	!	!	!	!	!	!	!
.	16a/	.	16een\	.	.	.	.	.	.	.	.	.	.	.	.	.	.	.	.	.	.	.	.	.	.	.	.	.	.	.	.	.
.	16a/	.	16ff\	.	.	.	.	.	.	.	.	.	.	.	.	.	.	.	.	.	.	.	.	.	.	.	.	.	.	.	.	.
.	16a/	.	16gg\JJ	.	.	.	.	.	.	.	.	.	.	.	.	.	.	.	.	.	.	.	.	.	.	.	.	.	.	.	.	.
*	*	*	*tremolo	*	*	*	*	*	*	*	*	*	*	*	*	*	*	*	*	*	*	*	*	*	*	*	*	*	*	*	*	*
.	16a/	.	8ff\L	.	4F\	-mni-	-mni-	.	.	.	.	.	.	.	.	.	.	.	.	.	.	.	.	.	4r	.	4r	.	.	.	.	.
.	16a/	.	.	.	.	.	.	.	.	.	.	.	.	.	.	.	.	.	.	.	.	.	.	.	.	.	.	.	.	.	.	.
.	16a/	.	8ff\	.	.	.	.	.	.	8c\	-mni-	-mni-	.	.	8a\	-mni-	-mni-	.	.	8ff\	-ni-	-mni-	.	.	.	.	.	.	.	.	.	.
.	16a/	.	.	.	.	.	.	.	.	.	.	.	.	.	.	.	.	.	.	.	.	.	.	.	.	.	.	.	.	.	.	.
!	!	!	!	!	!	!	!	!	!	!	!	!	!	!	!	!	!	!	!	!	!	!	!	!	!LO:SIC:o=4ryy	!	!	!	!	!	!	!
.	16a/	.	8ff\	.	4d\	-a	-a	.	.	8d\	-a	.	.	.	4a\	-a	-a	.	.	4ff\	-a	-a	.	.	4r	.	4r	.	.	.	.	.
.	16a/	.	.	.	.	.	.	.	.	.	.	.	.	.	.	.	.	.	.	.	.	.	.	.	.	.	.	.	.	.	.	.
.	16a/	.	8ff\J	.	.	.	.	.	.	8d\	fa-	-a	.	.	.	.	.	.	.	.	.	.	.	.	.	.	.	.	.	.	.	.
.	16a/JJ	.	.	.	.	.	.	.	.	.	.	.	.	.	.	.	.	.	.	.	.	.	.	.	.	.	.	.	.	.	.	.
*	*	*	*Xtremolo	*	*	*	*	*	*	*	*	*	*	*	*	*	*	*	*	*	*	*	*	*	*	*	*	*	*	*	*	*
!	!	!	!LO:LB:g=original	!	!	!	!	!	!	!	!	!	!	!	!	!	!	!	!	!LO:LB:g=original	!	!	!	!	!LO:MO:mod==39	!LO:MO:mod==39	!LO:LB:g=original	!	!	!	!	!
=39	=39	=39	=39	=39	=39	=39	=39	=39	=39	=39	=39	=39	=39	=39	=39	=39	=39	=39	=39	=39	=39	=39	=39	=39	=39-	=39-	=39	=39	=39	=39	=39	=39
2.ryy	16g/LL	.	16ff\LL	.	4B-\	fa-	fa-	.	.	4d\	-cta	fa-	.	.	2g\	fa-	fa-	.	.	2ff\	fa-	fa-	.	.	2.r	.	4dd\	.	8dd\L	.	8bb-\L	.
.	16g/	.	16ff\	.	.	.	.	.	.	.	.	.	.	.	.	.	.	.	.	.	.	.	.	.	.	.	.	.	.	.	.	.
.	16g/	.	16ff\	.	.	.	.	.	.	.	.	.	.	.	.	.	.	.	.	.	.	.	.	.	.	.	.	.	8b-\J	.	8gg\J	.
.	16g/	.	16ff\JJ	.	.	.	.	.	.	.	.	.	.	.	.	.	.	.	.	.	.	.	.	.	.	.	.	.	.	.	.	.
*	*	*	*tremolo	*	*	*	*	*	*	*	*	*	*	*	*	*	*	*	*	*	*	*	*	*	*	*	*	*	*	*	*	*
.	16g/	.	16ff\LL	.	4c\	.	.	.	.	4c\	.	.	.	.	.	.	.	.	.	.	.	.	.	.	.	.	4cc\	.	4a\	.	4ff\	.
.	16g/	.	16ff\	.	.	.	.	.	.	.	.	.	.	.	.	.	.	.	.	.	.	.	.	.	.	.	.	.	.	.	.	.
.	16g/	.	16ff\	.	.	.	.	.	.	.	.	.	.	.	.	.	.	.	.	.	.	.	.	.	.	.	.	.	.	.	.	.
.	16g/	.	16ff\JJ	.	.	.	.	.	.	.	.	.	.	.	.	.	.	.	.	.	.	.	.	.	.	.	.	.	.	.	.	.
!	!	!	!	!	!	!	!	!	!	!	!	!	!	!	!	!	!	!	!	!LO:SIC:v:o=4ee-\	!	!	!	!	!	!	!	!	!	!	!	!
.	16g/	.	16een\LL	.	4C/	-cta	-cta	.	.	4c\	.	-cta	.	.	4g\	-cta	-cta	.	.	4een\	-cta	-cta	.	.	.	.	4cc\	.	4g\	.	4eeX\	.
.	16g/	.	16ee\	.	.	.	.	.	.	.	.	.	.	.	.	.	.	.	.	.	.	.	.	.	.	.	.	.	.	.	.	.
.	16g/	.	16ee\	.	.	.	.	.	.	.	.	.	.	.	.	.	.	.	.	.	.	.	.	.	.	.	.	.	.	.	.	.
.	16g/JJ	.	16ee\JJ	.	.	.	.	.	.	.	.	.	.	.	.	.	.	.	.	.	.	.	.	.	.	.	.	.	.	.	.	.
*	*Xtremolo	*	*Xtremolo	*	*	*	*	*	*	*	*	*	*	*	*	*	*	*	*	*	*	*	*	*	*	*	*	*	*	*	*	*
!	!	!	!	!	!	!	!	!	!	!	!	!	!	!	!	!	!	!	!	!	!	!	!	!	!	!	!	!	!	!	!LO:LB:g=original	!
=40	=40	=40	=40	=40	=40	=40	=40	=40	=40	=40	=40	=40	=40	=40	=40	=40	=40	=40	=40	=40	=40	=40	=40	=40	=40	=40	=40	=40	=40	=40	=40	=40
2.ryy	4a/	.	4ff\	.	4F\	sunt	sunt.	.	.	4c\	sunt	sunt.	.	.	4a\	sunt	sunt.	.	.	4ff\	sunt	sunt.	.	.	2.ryy	.	4cc\	.	4a\	.	4ff\	.
.	4r	.	8r	.	4r	.	.	.	.	4r	.	.	.	.	4r	.	.	.	.	4r	.	.	.	.	.	.	4r	.	4r	.	4r	.
!	!	!	!	!LO:DY:a:t=p.:rj	!	!	!	!	!	!	!	!	!	!	!	!	!	!	!	!	!	!	!	!	!	!	!	!	!	!	!	!
.	.	.	8ff\L	p	.	.	.	.	.	.	.	.	.	.	.	.	.	.	.	.	.	.	.	.	.	.	.	.	.	.	.	.
.	4r	.	8ee-\	.	4r	.	.	.	.	4r	.	.	.	.	4r	.	.	.	.	4r	.	.	.	.	.	.	4r	.	4r	.	4r	.
.	.	.	8dd\J	.	.	.	.	.	.	.	.	.	.	.	.	.	.	.	.	.	.	.	.	.	.	.	.	.	.	.	.	.
=41	=41	=41	=41	=41	=41	=41	=41	=41	=41	=41	=41	=41	=41	=41	=41	=41	=41	=41	=41	=41	=41	=41	=41	=41	=41	=41	=41	=41	=41	=41	=41	=41
!	!	!	!	!	!	!	!	!	!	!	!	!	!	!	!LO:TX:t=P:problem:brak taktu	!	!	!	!	!	!	!	!	!	!LO:TX:a:t=13:mod=	!	!LO:TX:a:t=13:mod=	!	!LO:N:vis=00	!	!LO:N:vis=00	!
!	!	!	!	!	!	!	!	!	!	!	!	!	!	!	!LO:SIC:o=2.ryy	!	!	!	!	!	!	!	!	!	!	!	!	!	!	!	!	!
2.ryy	2.r	.	(4cc'\	.	2.r	.	.	.	.	2.r	.	.	.	.	2.r	.	.	.	.	4cc\	qui	Qui	.	.	2.r	.	2.r	.	0.r	.	0.r	.
.	.	.	.	.	.	.	.	.	.	.	.	.	.	.	.	.	.	.	.	.	.	.	.	.	.	.	.	.	.	.	.	.
.	.	.	4cc'\	.	.	.	.	.	.	.	.	.	.	.	.	.	.	.	.	4cc\	pro-	pro-	.	.	.	.	.	.	.	.	.	.
.	.	.	.	.	.	.	.	.	.	.	.	.	.	.	.	.	.	.	.	.	.	.	.	.	.	.	.	.	.	.	.	.
.	.	.	4cc'\)	.	.	.	.	.	.	.	.	.	.	.	.	.	.	.	.	4cc\	-pter	-pter	.	.	.	.	.	.	.	.	.	.
.	.	.	.	.	.	.	.	.	.	.	.	.	.	.	.	.	.	.	.	.	.	.	.	.	.	.	.	.	.	.	.	.
!	!LO:PB:g=original	!	!	!	!	!	!	!	!	!	!	!	!	!	!	!	!	!	!	!	!	!	!	!	!	!	!	!	!	!	!	!
=42	=42	=42	=42	=42	=42	=42	=42	=42	=42	=42	=42	=42	=42	=42	=42	=42	=42	=42	=42	=42	=42	=42	=42	=42	=42	=42	=42	=42	=42	=42	=42	=42
2.ryy	8en/L	.	2.cc\	.	4C/	Qui	Qui	.	.	4r	.	.	.	.	8en\L	Qui	Qui	.	.	2.cc\	nos	nos,	.	.	2.r	.	2.r	.	.	.	.	.
.	8f/	.	.	.	.	.	.	.	.	.	.	.	.	.	8f\J	.	.	.	.	.	.	.	.	.	.	.	.	.	.	.	.	.
!	!	!	!	!	!	!	!	!	!	!	!	!	!	!	!LO:LB:g=original	!	!	!	!	!	!	!	!	!	!	!	!	!	!	!	!	!
.	8g/	.	.	.	4C/	pro-	pro-	.	.	4c\	pro-	pro-	.	.	8g\L	pro-	pro-	.	.	.	.	.	.	.	.	.	.	.	.	.	.	.
.	8a/	.	.	.	.	.	.	.	.	.	.	.	.	.	8a\J	.	.	.	.	.	.	.	.	.	.	.	.	.	.	.	.	.
.	8b-/	.	.	.	4C/	-pter	-pter	.	.	4c\	-pter	-pter	.	.	8b-\L	-pter	-pter	.	.	.	.	.	.	.	.	.	.	.	.	.	.	.
.	8g/J	.	.	.	.	.	.	.	.	.	.	.	.	.	8g\J	.	.	.	.	.	.	.	.	.	.	.	.	.	.	.	.	.
!	!	!	!	!	!LO:LB:g=original	!	!	!	!	!	!	!	!	!	!	!	!	!	!	!	!	!	!	!	!	!	!	!	!	!	!	!
=43	=43	=43	=43	=43	=43	=43	=43	=43	=43	=43	=43	=43	=43	=43	=43	=43	=43	=43	=43	=43	=43	=43	=43	=43	=43	=43	=43	=43	=43	=43	=43	=43
*	*	*	*	*	*	*	*	*	*	*	*	*	*	*	*	*	*	*	*	*	*ij	*ij	*	*	*	*	*	*	*	*	*	*
2.ryy	4a/	.	4cc\	.	4F\	nos	nos	.	.	4c\	nos	nos	.	.	4a\	nos	nos,	.	.	4cc\	nos	nos	.	.	2.r	.	2.r	.	.	.	.	.
*	*	*	*	*	*	*	*	*	*	*	*	*	*	*	*	*	*	*	*	*	*Xij	*Xij	*	*	*	*	*	*	*	*	*	*
.	4r	.	4cc\	.	4r	.	.	.	.	4r	.	.	.	.	4r	.	.	.	.	4cc\	ho-	ho-	.	.	.	.	.	.	.	.	.	.
.	.	.	.	.	.	.	.	.	.	.	.	.	.	.	.	.	.	.	.	.	.	.	.	.	.	.	.	.	.	.	.	.
.	4r	.	4cc\	.	4r	.	.	.	.	4r	.	.	.	.	4r	.	.	.	.	4cc\	-mi-	-mi-	.	.	.	.	.	.	.	.	.	.
.	.	.	.	.	.	.	.	.	.	.	.	.	.	.	.	.	.	.	.	.	.	.	.	.	.	.	.	.	.	.	.	.
=44	=44	=44	=44	=44	=44	=44	=44	=44	=44	=44	=44	=44	=44	=44	=44	=44	=44	=44	=44	=44	=44	=44	=44	=44	=44	=44	=44	=44	=44	=44	=44	=44
2.ryy	8r	.	2.cc#X\	.	4r	.	.	.	.	4r	.	.	.	.	4g\	nos	nos	.	.	2.cc#X\	-nes	-nes,	.	.	2.r	.	2.r	.	.	.	.	.
.	8g/L	.	.	.	.	.	.	.	.	.	.	.	.	.	.	.	.	.	.	.	.	.	.	.	.	.	.	.	.	.	.	.
.	8f/	.	.	.	4A\	ho-	ho-	.	.	4A\	ho-	ho-	.	.	8f\L	ho-	ho-	.	.	.	.	.	.	.	.	.	.	.	.	.	.	.
.	8g/	.	.	.	.	.	.	.	.	.	.	.	.	.	8g\J	.	.	.	.	.	.	.	.	.	.	.	.	.	.	.	.	.
.	8a/	.	.	.	4A\	-mi-	-mi-	.	.	4A\	-mi-	-mi-	.	.	8a\L	-mi-	-mi-	.	.	.	.	.	.	.	.	.	.	.	.	.	.	.
.	8g/J	.	.	.	.	.	.	.	.	.	.	.	.	.	8g\J	.	.	.	.	.	.	.	.	.	.	.	.	.	.	.	.	.
=45	=45	=45	=45	=45	=45	=45	=45	=45	=45	=45	=45	=45	=45	=45	=45	=45	=45	=45	=45	=45	=45	=45	=45	=45	=45	=45	=45	=45	=45	=45	=45	=45
!	!	!	!	!	!	!	!	!	!	!	!	!	!	!	!	!	!	!	!	!	!	!	!	!	!	!	!	!	!LO:N:vis=00	!	!LO:N:vis=00	!
2.ryy	4f/	.	4dd\	.	4D\	-nes	-nes,	.	.	4A\	-nes	-nes,	.	.	4f\	-nes	-nes,	.	.	4dd\	et	et	.	.	2.r	.	2.r	.	0.r	.	0.r	.
.	.	.	.	.	.	.	.	.	.	.	.	.	.	.	.	.	.	.	.	.	.	.	.	.	.	.	.	.	.	.	.	.
.	4r	.	4dd\	.	4r	.	.	.	.	4r	.	.	.	.	4r	.	.	.	.	4dd\	pro-	pro-	.	.	.	.	.	.	.	.	.	.
.	.	.	.	.	.	.	.	.	.	.	.	.	.	.	.	.	.	.	.	.	.	.	.	.	.	.	.	.	.	.	.	.
.	4r	.	4dd\	.	4r	.	.	.	.	4r	.	.	.	.	4r	.	.	.	.	4dd\	-pter	-pter	.	.	.	.	.	.	.	.	.	.
.	.	.	.	.	.	.	.	.	.	.	.	.	.	.	.	.	.	.	.	.	.	.	.	.	.	.	.	.	.	.	.	.
=46	=46	=46	=46	=46	=46	=46	=46	=46	=46	=46	=46	=46	=46	=46	=46	=46	=46	=46	=46	=46	=46	=46	=46	=46	=46	=46	=46	=46	=46	=46	=46	=46
2.ryy	8a\L	.	2.ee-X\	.	4r	.	.	.	.	8A\L	nos-	nos-	.	.	8f\L	nos-	nos-	.	.	2.ee-X\	nos-	nos-	.	.	2.r	.	2.r	.	.	.	.	.
!	!	!	!	!	!	!	!	!	!	!	!	!	!	!	!LO:SIC:o=8g\J	!	!	!	!	!	!	!	!	!	!	!	!	!	!	!	!	!
.	8b-\	.	.	.	.	.	.	.	.	8B-\	.	.	.	.	8g\	.	.	.	.	.	.	.	.	.	.	.	.	.	.	.	.	.
!	!	!	!	!	!	!	!	!	!	!	!	!	!	!	!LO:SIC:o=8a\L	!	!	!	!	!	!	!	!	!	!	!	!	!	!	!	!	!
.	8cc\	.	.	.	4F\	pro-	pro-	.	.	8c\	.	.	.	.	8a\	.	.	.	.	.	.	.	.	.	.	.	.	.	.	.	.	.
.	8a\	.	.	.	.	.	.	.	.	8A\	.	.	.	.	8f\	.	.	.	.	.	.	.	.	.	.	.	.	.	.	.	.	.
.	8b-\	.	.	.	4F\	-pter	-pter	.	.	8B-\	.	.	.	.	8g\	.	.	.	.	.	.	.	.	.	.	.	.	.	.	.	.	.
.	8cc\J	.	.	.	.	.	.	.	.	8c\J	.	.	.	.	8a\J	.	.	.	.	.	.	.	.	.	.	.	.	.	.	.	.	.
!	!	!	!	!	!	!	!	!	!	!LO:LB:g=original	!	!	!	!	!	!	!	!	!	!	!	!	!	!	!	!	!	!	!	!	!	!
=47	=47	=47	=47	=47	=47	=47	=47	=47	=47	=47	=47	=47	=47	=47	=47	=47	=47	=47	=47	=47	=47	=47	=47	=47	=47	=47	=47	=47	=47	=47	=47	=47
2.ryy	4b-\	.	4dd\	.	4BB-/	nos	nos	.	.	4d\	-stram	-tram	.	.	4b-\	-tram	-tram	.	.	2dd\	-tram	-tram	.	.	2.r	.	2.r	.	.	.	.	.
.	.	.	.	.	.	.	.	.	.	.	.	.	.	.	.	.	.	.	.	.	.	.	.	.	.	.	.	.	.	.	.	.
.	4r	.	4dd\	.	4r	.	.	.	.	4r	.	.	.	.	4r	.	.	.	.	.	.	.	.	.	.	.	.	.	.	.	.	.
.	.	.	.	.	.	.	.	.	.	.	.	.	.	.	.	.	.	.	.	.	.	.	.	.	.	.	.	.	.	.	.	.
.	4r	.	4dd\	.	4r	.	.	.	.	4r	.	.	.	.	4r	.	.	.	.	4dd\	sa-	sa-	.	.	.	.	.	.	.	.	.	.
.	.	.	.	.	.	.	.	.	.	.	.	.	.	.	.	.	.	.	.	.	.	.	.	.	.	.	.	.	.	.	.	.
=48	=48	=48	=48	=48	=48	=48	=48	=48	=48	=48	=48	=48	=48	=48	=48	=48	=48	=48	=48	=48	=48	=48	=48	=48	=48	=48	=48	=48	=48	=48	=48	=48
2.ryy	8f#X/L	.	2.dd\	.	4r	.	.	.	.	8F#X/L	Sa-	sa-	.	.	8d\L	sa-	sa-	.	.	4dd\	-lu-	-lu-	.	.	2.r	.	2.r	.	.	.	.	.
.	8g/	.	.	.	.	.	.	.	.	8G/J	.	.	.	.	8e-\J	.	.	.	.	.	.	.	.	.	.	.	.	.	.	.	.	.
.	8a/	.	.	.	4r	.	.	.	.	8A\L	-lu-	-lu-	.	.	8f#X\L	-lu-	-lu-	.	.	4dd\	-tem	-tem	.	.	.	.	.	.	.	.	.	.
!	!	!	!	!	!	!	!	!	!	!	!	!	!	!	!LO:SIC:o=8g\J	!	!	!	!	!	!	!	!	!	!	!	!	!	!	!	!	!
.	8b-/	.	.	.	.	.	.	.	.	8B-\	.	.	.	.	8g\	.	.	.	.	.	.	.	.	.	.	.	.	.	.	.	.	.
!	!	!	!	!	!	!	!	!	!	!	!	!	!	!	!LO:SIC:o=8a\L	!	!	!	!	!	!	!	!	!	!	!	!	!	!	!	!	!
.	8cc/	.	.	.	8D\	ho-	ho-	.	.	8c\	.	.	.	.	8a\	.	.	.	.	4dd\	des-	des-	.	.	.	.	.	.	.	.	.	.
.	8a/J	.	.	.	8D\	-mi-	-mi-	.	.	8A\J	.	.	.	.	8f#\J	.	.	.	.	.	.	.	.	.	.	.	.	.	.	.	.	.
!	!	!	!LO:LB:g=original	!	!	!	!	!	!	!	!	!	!	!	!LO:LB:g=original	!	!	!	!	!LO:LB:g=original	!	!	!	!	!	!	!	!	!	!	!	!
=49	=49	=49	=49	=49	=49	=49	=49	=49	=49	=49	=49	=49	=49	=49	=49	=49	=49	=49	=49	=49	=49	=49	=49	=49	=49	=49	=49	=49	=49	=49	=49	=49
!	!	!	!	!	!	!	!	!	!	!	!	!	!	!	!	!	!	!	!	!	!	!	!	!	!	!	!	!	!LO:N:vis=00	!	!LO:N:vis=00	!
2.ryy	4b-\	.	4dd\	.	4G\	-nes	-nes,	.	.	4B-\	-tem	-tem	.	.	4g\	-tem	-tem	.	.	4dd\	-cen-	-cen-	.	.	2.r	.	2.r	.	0.r	.	0.r	.
.	.	.	.	.	.	.	.	.	.	.	.	.	.	.	.	.	.	.	.	.	.	.	.	.	.	.	.	.	.	.	.	.
.	4r	.	4gg\	.	4r	.	.	.	.	4r	.	.	.	.	4r	.	.	.	.	4gg\	-dit	-dit	.	.	.	.	.	.	.	.	.	.
.	.	.	.	.	.	.	.	.	.	.	.	.	.	.	.	.	.	.	.	.	.	.	.	.	.	.	.	.	.	.	.	.
.	4r	.	4gg\	.	4r	.	.	.	.	4r	.	.	.	.	4r	.	.	.	.	4gg\	de	de	.	.	.	.	.	.	.	.	.	.
.	.	.	.	.	.	.	.	.	.	.	.	.	.	.	.	.	.	.	.	.	.	.	.	.	.	.	.	.	.	.	.	.
!	!LO:LB:g=original	!	!	!	!	!	!	!	!	!	!	!	!	!	!	!	!	!	!	!	!	!	!	!	!	!	!	!	!	!	!	!
=50	=50	=50	=50	=50	=50	=50	=50	=50	=50	=50	=50	=50	=50	=50	=50	=50	=50	=50	=50	=50	=50	=50	=50	=50	=50	=50	=50	=50	=50	=50	=50	=50
!	!LO:SIC:v:o=8e-X/L	!	!	!	!	!	!	!	!	!	!	!	!	!	!	!	!	!	!	!	!	!	!	!	!	!	!	!	!	!	!	!
2.ryy	8d/L	.	2.gg\	.	4r	.	.	.	.	8Bn\L	De-	de-	.	.	8d\L	de-	de-	.	.	2.gg\	ce-	cae-	.	.	2.r	.	2.r	.	.	.	.	.
!	!	!	!	!	!	!	!	!	!	!LO:SIC:o=8c\	!	!	!	!	!	!	!	!	!	!	!	!	!	!	!	!	!	!	!	!	!	!
.	8en/	.	.	.	.	.	.	.	.	8c\J	.	.	.	.	8en\J	.	.	.	.	.	.	.	.	.	.	.	.	.	.	.	.	.
!	!	!	!	!	!	!	!	!	!	!LO:SIC:o=8d\	!	!	!	!	!	!	!	!	!	!	!	!	!	!	!	!	!	!	!	!	!	!
.	8f/	.	.	.	4G\	de-	de-	.	.	8d\L	-scen-	-scen-	.	.	8f\L	-scen-	-scen-	.	.	.	.	.	.	.	.	.	.	.	.	.	.	.
.	8e/	.	.	.	.	.	.	.	.	8c\	.	.	.	.	8e\	.	.	.	.	.	.	.	.	.	.	.	.	.	.	.	.	.
.	8f/	.	.	.	4G\	-scen-	-scen-	.	.	8d\	.	.	.	.	8f\	.	.	.	.	.	.	.	.	.	.	.	.	.	.	.	.	.
!	!LO:SIC:v:o=8e/J	!	!	!	!	!	!	!	!	!	!	!	!	!	!LO:SIC:v:o=8e\J	!	!	!	!	!	!	!	!	!	!	!	!	!	!	!	!	!
.	8d/J	.	.	.	.	.	.	.	.	8B\J	.	.	.	.	8d\J	.	.	.	.	.	.	.	.	.	.	.	.	.	.	.	.	.
=51	=51	=51	=51	=51	=51	=51	=51	=51	=51	=51	=51	=51	=51	=51	=51	=51	=51	=51	=51	=51	=51	=51	=51	=51	=51	=51	=51	=51	=51	=51	=51	=51
!	!	!	!	!	!	!	!	!	!	!	!	!	!	!	!LO:SIC:v:o=4e-\	!	!	!	!	!	!	!	!	!	!	!	!	!	!	!	!	!
2.ryy	4en/	.	8gg\L	.	4C/	-dit	-dit	.	.	4c\	-dit	-dit	.	.	4en\	-dit	-dit	.	.	4gg\	-lis	-lis,	.	.	2.r	.	2.r	.	.	.	.	.
.	.	.	8een\	.	.	.	.	.	.	.	.	.	.	.	.	.	.	.	.	.	.	.	.	.	.	.	.	.	.	.	.	.
.	4r	.	8dd\	.	4r	.	.	.	.	4r	.	.	.	.	4r	.	.	.	.	4r	.	.	.	.	.	.	.	.	.	.	.	.
.	.	.	8cc\J	.	.	.	.	.	.	.	.	.	.	.	.	.	.	.	.	.	.	.	.	.	.	.	.	.	.	.	.	.
.	4r	.	8bn\L	.	4r	.	.	.	.	4r	.	.	.	.	4r	.	.	.	.	4r	.	.	.	.	.	.	.	.	.	.	.	.
.	.	.	8cc\J	.	.	.	.	.	.	.	.	.	.	.	.	.	.	.	.	.	.	.	.	.	.	.	.	.	.	.	.	.
!	!	!	!	!	!LO:LB:g=original	!	!	!	!	!	!	!	!	!	!	!	!	!	!	!	!	!	!	!	!	!	!	!	!	!	!	!
=52	=52	=52	=52	=52	=52	=52	=52	=52	=52	=52	=52	=52	=52	=52	=52	=52	=52	=52	=52	=52	=52	=52	=52	=52	=52	=52	=52	=52	=52	=52	=52	=52
!	!	!	!	!	!	!	!	!	!	!	!	!	!	!	!LO:SIC:v:o=4B-\	!	!	!	!	!	!	!	!	!	!	!	!	!	!	!	!	!
2.ryy	4G/ 4f	.	8bn\	.	4D\	.	[de	.	.	4G/	de	de	.	.	4Bn\	de	de	.	.	4bn\	de	de	.	.	2.r	.	2.r	.	.	.	.	.
.	.	.	4b\	.	.	.	.	.	.	.	.	.	.	.	.	.	.	.	.	.	.	.	.	.	.	.	.	.	.	.	.	.
.	4G/ 4f	.	.	.	2D\	.	cae-	.	.	2G/	ce-	cae-	.	.	2f\	Ce-	cae-	.	.	2b\	ce-	cae-	.	.	.	.	.	.	.	.	.	.
.	.	.	4b\	.	.	.	.	.	.	.	.	.	.	.	.	.	.	.	.	.	.	.	.	.	.	.	.	.	.	.	.	.
.	4G/ 4f	.	.	.	.	.	.	.	.	.	.	.	.	.	.	.	.	.	.	.	.	.	.	.	.	.	.	.	.	.	.	.
.	.	.	8b\	.	.	.	.	.	.	.	.	.	.	.	.	.	.	.	.	.	.	.	.	.	.	.	.	.	.	.	.	.
=53	=53	=53	=53	=53	=53	=53	=53	=53	=53	=53	=53	=53	=53	=53	=53	=53	=53	=53	=53	=53	=53	=53	=53	=53	=53	=53	=53	=53	=53	=53	=53	=53
!	!	!	!LO:SIC:v:o=2b-;>\	!	!LO:MO:mod=2C/;	!	!	!	!	!LO:SIC:o=2G/	!	!	!	!	!LO:SIC:o=2en\	!	!	!	!	!LO:SIC:o=2cc\	!	!	!	!	!LO:SIC:o=2.r	!	!LO:SIC:o=2.r	!	!LO:SIC:o=2.r	!	!LO:SIC:o=2.r	!
2.ryy	2G;>/ 2en	.	2cc;>\	.	4C/	.	-lis].	.	.	2G/;	-lis	-lis.	.	.	2en\;	-lis	-lis.	.	.	2cc\;	-lis	-lis.	.	.	2.r;	.	2.r;	.	2.r;	.	2.r;	.
!	!	!	!	!	!LO:MO:mod=.	!	!	!	!	!	!	!	!	!	!	!	!	!	!	!	!	!	!	!	!	!	!	!	!	!	!	!
.	.	.	.	.	4r	.	.	.	.	.	.	.	.	.	.	.	.	.	.	.	.	.	.	.	.	.	.	.	.	.	.	.
.	4r	.	4r	.	4r	.	.	.	.	4r	.	.	.	.	4r	.	.	.	.	4r	.	.	.	.	.	.	.	.	.	.	.	.
!	!LO:LB:g=original	!	!LO:LB:g=original	!	!LO:LB:g=original	!	!	!	!	!LO:LB:g=original	!	!	!	!	!LO:LB:g=original	!	!	!	!	!	!	!	!	!	!LO:LB:g=original	!	!	!	!LO:LB:g=original	!	!LO:LB:g=original	!
==	==	==	==	==	==	==	==	==	==	==	==	==	==	==	==	==	==	==	==	==	==	==	==	==	==	==	==	==	==	==	==	==
*-	*-	*-	*-	*-	*-	*-	*-	*-	*-	*-	*-	*-	*-	*-	*-	*-	*-	*-	*-	*-	*-	*-	*-	*-	*-	*-	*-	*-	*-	*-	*-	*-
!!!system-decoration: [(g1)][(g2)][(g3)][(g4)]g5
!!!RDF**kern: < = below
!!!RDF**kern: > = above
!!!filter-modern: sic -sq | shed -e "s/LO:DY:(a|b|rj)/LO:dy:$1/L" | autostem -r | tie -s | shed -k -e "s/[<>]//g" | shed -e "s/N:vis=/N:VIS=/L" | shed -e "s/TX(.*):t=P:/tx$1:t=P:/LG" | shed -e "s/^(X?)rep$/$1REP/I" | shed -e "s/^(\d+[\/\\]right)/$1yy/I; s/^(\d+[\/\\]left)/$1yy/I" | modori -m
!!!ENC: Anastazja Marusiak
!!!END: 2021-11-24
!!!EED: Marta Chmielewska
!!!EEV: 2021-12-01
!!!ENC-modern: Katarzyna Serwa
!!!END-modern: 2022-08-25
